; generated by PrusaSlicer 2.6.1+win64 on 2023-10-10 at 15:15:48 UTC


;
;
; 

; external perimeters extrusion width = 0.45mm
; perimeters extrusion width = 0.45mm
; infill extrusion width = 0.45mm
; solid infill extrusion width = 0.45mm
; top infill extrusion width = 0.40mm
; support material extrusion width = 0.35mm
; first layer extrusion width = 0.42mm

; external perimeters extrusion width = 0.45mm
; perimeters extrusion width = 0.45mm
; infill extrusion width = 0.45mm
; solid infill extrusion width = 0.45mm
; top infill extrusion width = 0.40mm
; support material extrusion width = 0.35mm
; first layer extrusion width = 0.42mm

; external perimeters extrusion width = 0.45mm
; perimeters extrusion width = 0.45mm
; infill extrusion width = 0.45mm
; solid infill extrusion width = 0.45mm
; top infill extrusion width = 0.40mm
; support material extrusion width = 0.35mm
; first layer extrusion width = 0.42mm

M73 P0 R33
M73 Q0 S34
M201 X1000 Y1000 Z200 E5000 ; sets maximum accelerations, mm/sec^2
M203 X200 Y200 Z12 E120 ; sets maximum feedrates, mm / sec
M204 S1250 T1250 ; sets acceleration (S) and retract acceleration (R), mm/sec^2
M205 X8.00 Y8.00 Z0.40 E4.50 ; sets the jerk limits, mm/sec
M205 S0 T0 ; sets the minimum extruding and travel feed rate, mm/sec
;TYPE:Custom
M862.3 P "MK3S" ; printer model check
M862.1 P0.4 ; nozzle diameter check
M115 U3.13.0 ; tell printer latest fw version
G90 ; use absolute coordinates
M83 ; extruder relative mode
M104 S230 ; set extruder temp
M140 S85 ; set bed temp
M190 S85 ; wait for bed temp
M109 S230 ; wait for extruder temp
G28 W ; home all without mesh bed level
G80 ; mesh bed leveling

G1 Z0.2 F720
G1 Y-3 F1000 ; go outside print area
G92 E0
M73 Q0 S33
G1 X60 E9 F1000 ; intro line
G1 X100 E12.5 F1000 ; intro line

G92 E0
M221 S95

; Don't change E values below. Excessive value can damage the printer.
M907 E430 ; set extruder motor current
G21 ; set units to millimeters
G90 ; use absolute coordinates
M83 ; use relative distances for extrusion
M900 K0.08 ; Filament gcode LA 1.5
M900 K45 ; Filament gcode LA 1.0
M107
;LAYER_CHANGE
;Z:0.2
;HEIGHT:0.2
;BEFORE_LAYER_CHANGE
G92 E0.0
;0.2


G1 E-1 F2100
G1 Z.2 F720
;AFTER_LAYER_CHANGE
;0.2
G1 Z.4
G1 X88.602 Y99.216 F10800
G1 Z.2 F720
G1 E1 F2100
M204 S800
;TYPE:Skirt/Brim
;WIDTH:0.42
G1 F1200
G1 X89.757 Y98.917 E.03741
G1 X160.243 Y98.917 E2.21004
G1 X161.55 Y99.308 E.04277
G1 X162.35 Y100.193 E.03741
G1 X165.472 Y106.194 E.2121
G1 X165.959 Y107.694 E.04945
G1 X166.065 Y108.665 E.03063
G1 X166.018 Y109.64 E.03061
G1 X165.73 Y110.882 E.03998
G1 X159.589 Y127.118 E.54427
G1 X159.222 Y127.905 E.02723
G1 X158.689 Y128.705 E.03014
G1 X157.666 Y129.719 E.04516
G1 X157.113 Y130.101 E.02107
G1 X156.275 Y130.527 E.02948
G1 X128.421 Y141.386 E.93736
G1 X127.558 Y141.549 E.02754
G1 X112.442 Y141.549 E.47395
G1 X110.759 Y140.85 E.05714
G1 X88.074 Y118.087 E1.00762
G1 X87.65 Y117.509 E.02248
G1 X84.617 Y111.699 E.2055
G1 X84.297 Y110.951 E.02551
G1 X84.003 Y109.815 E.03679
G1 X83.935 Y109.038 E.02446
G1 X83.982 Y108.062 E.03064
G1 X84.297 Y106.752 E.04224
G1 X84.613 Y106.013 E.0252
G1 X87.65 Y100.194 E.2058
G1 X88.56 Y99.259 E.04091
M204 S1000
; printing object part1.stl id:0 copy 0
;WIPE_START
G1 F8640
G1 X89.757 Y98.917 E-.28745
G1 X92.843 Y98.917 E-.71255
;WIPE_END
G1 Z.4 F720
G1 X151.147 Y123.32 F10800
G1 Z.2 F720
G1 E1 F2100
M204 S800
;TYPE:Perimeter
;WIDTH:0.419999
G1 F1200
G1 X151.081 Y123.321 E.00207
G1 X150.774 Y123.483 E.01088
G1 X150.621 Y123.781 E.0105
G1 X150.621 Y126.218 E.07641
G1 X150.774 Y126.517 E.01053
G1 X151.178 Y126.687 E.01374
G1 X152.318 Y126.688 E.03574
G1 X152.323 Y126.912 E.00703
G1 X152.418 Y127.784 E.0275
G1 X152.493 Y127.858 E.0033
G1 X152.169 Y127.829 E.0102
G1 X151.648 Y127.815 E.01634
G1 X146.735 Y127.813 E.15404
;WIDTH:0.461515
G1 X146.588 Y127.792 E.00517
;WIDTH:0.50303
G1 X146.442 Y127.772 E.00564
;WIDTH:0.544545
G1 X146.295 Y127.751 E.00619
;WIDTH:0.58606
G1 X146.148 Y127.73 E.00671
G1 X146.207 Y127.699 E.00301
;WIDTH:0.557825
G1 X146.265 Y127.668 E.00282
;WIDTH:0.52959
G1 X146.435 Y127.576 E.00782
;WIDTH:0.49306
G1 X146.604 Y127.484 E.0072
;WIDTH:0.45653
G1 X146.773 Y127.393 E.0066
;WIDTH:0.419999
G1 X147.272 Y127.039 E.01918
G1 X147.668 Y126.599 E.01856
G1 X147.982 Y126.019 E.02068
G1 X148.137 Y125.49 E.01728
G1 X148.175 Y124.774 E.02248
G1 X148.063 Y124.194 E.01852
G1 X147.884 Y123.761 E.01469
G1 X147.398 Y123.081 E.02621
G1 X146.937 Y122.706 E.01863
G1 X146.363 Y122.426 E.02002
;WIDTH:0.462458
G1 X145.573 Y122.245 E.02827
G1 X146.028 Y122.187 E.016
;WIDTH:0.419999
G1 X151.686 Y122.184 E.1774
G1 X152.493 Y122.129 E.02536
G1 X152.417 Y122.215 E.0036
G1 X152.352 Y122.807 E.01867
G1 X152.331 Y123.312 E.01585
M73 Q1 S33
G1 X151.207 Y123.319 E.03524
M204 S1000
;WIPE_START
G1 F8640
G1 X151.081 Y123.321 E-.0291
G1 X150.774 Y123.483 E-.08015
G1 X150.621 Y123.781 E-.07735
G1 X150.621 Y126.218 E-.56271
G1 X150.774 Y126.517 E-.07755
G1 X151.178 Y126.687 E-.10121
M73 P1 R33
G1 X151.49 Y126.687 E-.07193
;WIPE_END
G1 Z.4 F720
G1 X155.587 Y122.637 F10800
G1 Z.2 F720
G1 E1 F2100
M204 S800
;WIDTH:0.424893
G1 F1200
G1 X155.968 Y122.992 E.01654
G1 X156.32 Y123.377 E.01657
G1 X155.658 Y123.319 E.02111
G1 X155.594 Y122.696 E.01989
M204 S1000
;WIPE_START
G1 F8640
G1 X155.968 Y122.992 E-.11013
G1 X156.32 Y123.377 E-.12045
G1 X155.658 Y123.319 E-.15344
G1 X155.594 Y122.696 E-.14461
;WIPE_END
G1 E-.47137 F2100
G1 Z.4 F720
G1 X155.679 Y126.655 F10800
G1 Z.2 F720
G1 E1 F2100
M204 S800
;WIDTH:0.422339
G1 F1200
G1 X156.363 Y126.586 E.02169
G1 X155.617 Y127.343 E.03353
G1 X155.674 Y126.715 E.01989
M204 S1000
;WIPE_START
G1 F8640
G1 X156.363 Y126.586 E-.16186
G1 X155.617 Y127.343 E-.24541
G1 X155.674 Y126.715 E-.1456
;WIPE_END
G1 E-.44713 F2100
G1 Z.4 F720
G1 X155.316 Y121.929 F10800
G1 Z.2 F720
G1 E1 F2100
M204 S800
;TYPE:External perimeter
;WIDTH:0.420364
G1 F1200
G1 X155.709 Y122.231 E.01556
;WIDTH:0.419999
G1 X156.308 Y122.79 E.02569
G1 X157.014 Y123.589 E.03343
;WIDTH:0.417239
G1 X157.151 Y123.836 E.00879
;WIDTH:0.435082
G1 X157.252 Y124.336 E.01663
;WIDTH:0.437437
G1 X157.289 Y124.871 E.01759
;WIDTH:0.440036
G1 X157.274 Y125.422 E.0182
G1 X157.219 Y125.93 E.01687
;WIDTH:0.424858
G1 X157.154 Y126.165 E.00774
;WIDTH:0.419153
G1 X156.921 Y126.518 E.01323
;WIDTH:0.419999
G1 X156.244 Y127.26 E.03149
G1 X155.832 Y127.657 E.01794
;WIDTH:0.42227
G1 X155.306 Y128.08 E.02129
G1 X155.032 Y128.196 E.00939
;WIDTH:0.436017
G1 X154.535 Y128.266 E.01641
G1 X153.993 Y128.29 E.01773
;WIDTH:0.427075
G1 X152.93 Y128.278 E.03396
;WIDTH:0.419999
G1 X152.323 Y128.221 E.01912
G1 X151.648 Y128.192 E.02118
G1 X145.995 Y128.189 E.17725
G1 X145.431 Y128.131 E.01778
;WIDTH:0.468287
G1 X145.205 Y128.037 E.00866
;WIDTH:0.516575
G1 X144.978 Y127.944 E.00966
;WIDTH:0.564862
G1 X144.751 Y127.85 E.01066
G1 X144.442 Y127.689 E.01512
;WIDTH:0.534648
G1 X144.134 Y127.529 E.01419
;WIDTH:0.504433
G1 X143.815 Y127.263 E.01594
;WIDTH:0.459969
G1 X143.402 Y126.829 E.02078
;WIDTH:0.432461
G1 X143.093 Y126.338 E.01879
;WIDTH:0.417258
G1 X142.884 Y125.808 E.01773
;WIDTH:0.416745
G1 X142.779 Y125.239 E.01799
G1 X142.8 Y124.684 E.01726
;WIDTH:0.415409
G1 X142.907 Y124.121 E.01775
G1 X143.124 Y123.621 E.01688
;WIDTH:0.440312
G1 X143.391 Y123.181 E.01701
;WIDTH:0.466231
G1 X143.728 Y122.796 E.01801
;WIDTH:0.499674
G1 X144.151 Y122.459 E.02054
;WIDTH:0.547805
G1 X144.91 Y122.077 E.03567
;WIDTH:0.49873
G1 X145.154 Y121.965 E.01018
;WIDTH:0.449654
G1 X145.492 Y121.852 E.01205
;WIDTH:0.419999
G1 X146.013 Y121.81 E.01639
G1 X151.66 Y121.807 E.17706
G1 X152.318 Y121.763 E.02068
;WIDTH:0.420129
G1 X153.073 Y121.712 E.02373
;WIDTH:0.435081
G1 X154.286 Y121.717 E.03955
G1 X155.007 Y121.798 E.02366
;WIDTH:0.420364
G1 X155.262 Y121.903 E.00865
M204 S1000
;WIPE_START
G1 F8640
G1 X155.709 Y122.231 E-.12802
G1 X156.308 Y122.79 E-.18918
G1 X157.014 Y123.589 E-.24619
G1 X157.151 Y123.836 E-.06522
G1 X157.252 Y124.336 E-.11778
G1 X157.289 Y124.871 E-.12383
G1 X157.274 Y125.422 E-.12727
G1 X157.273 Y125.433 E-.00251
;WIPE_END
G1 Z.4 F720
G1 X151.178 Y123.69 F10800
G1 Z.2 F720
G1 E1 F2100
M204 S800
;WIDTH:0.419999
G1 F1200
G1 X152.696 Y123.689 E.0476
G1 X152.723 Y122.892 E.025
G1 X152.792 Y122.256 E.02006
G1 X152.934 Y122.094 E.00675
;WIDTH:0.425526
G1 X154.003 Y122.095 E.03401
;WIDTH:0.429225
G1 X154.777 Y122.149 E.02492
G1 X155.066 Y122.213 E.00951
;WIDTH:0.421344
G1 X155.127 Y122.314 E.00371
G1 X155.247 Y122.856 E.01747
;WIDTH:0.419999
G1 X155.3 Y123.692 E.02626
G1 X155.855 Y123.703 E.01741
G1 X156.283 Y123.756 E.01352
G1 X156.746 Y123.902 E.01522
;WIDTH:0.417239
G1 X156.828 Y124.048 E.00521
;WIDTH:0.437437
G1 X156.895 Y124.879 E.02735
;WIDTH:0.440036
G1 X156.839 Y125.895 E.0336
;WIDTH:0.424858
G1 X156.79 Y126.06 E.00547
;WIDTH:0.419153
G1 X156.686 Y126.125 E.00384
;WIDTH:0.419999
G1 X156.145 Y126.247 E.01739
G1 X155.308 Y126.298 E.02629
G1 X155.297 Y126.854 E.01744
G1 X155.244 Y127.282 E.01352
;WIDTH:0.42227
G1 X155.07 Y127.785 E.01679
G1 X154.955 Y127.831 E.00391
;WIDTH:0.426981
G1 X154.015 Y127.906 E.03011
G1 X153.076 Y127.911 E.02999
;WIDTH:0.420186
G1 X152.963 Y127.908 E.00355
;WIDTH:0.419999
G1 X152.792 Y127.743 E.00745
G1 X152.698 Y126.871 E.0275
G1 X152.691 Y126.311 E.01756
G1 X151.178 Y126.31 E.04744
G1 X151.044 Y126.253 E.00457
G1 X150.99 Y126.121 E.00447
G1 X150.99 Y123.879 E.0703
G1 X151.044 Y123.747 E.00447
G1 X151.123 Y123.713 E.0027
M204 S1000
G1 X151.282 Y123.304 F10800
;WIPE_START
G1 F8640
G1 X152.696 Y123.689 E-.36325
G1 X152.723 Y122.892 E-.18414
G1 X152.792 Y122.256 E-.14772
G1 X152.934 Y122.094 E-.04974
G1 X154.003 Y122.095 E-.24684
G1 X154.039 Y122.098 E-.00831
;WIPE_END
G1 Z.4 F720
G1 X146.54 Y122.926 F10800
G1 Z.2 F720
G1 E1 F2100
M204 S800
G1 F1200
G1 X146.761 Y123.039 E.00778
G1 X147.153 Y123.368 E.01605
G1 X147.572 Y123.973 E.02307
G1 X147.694 Y124.274 E.01018
G1 X147.798 Y124.774 E.01601
G1 X147.761 Y125.469 E.02182
G1 X147.603 Y125.965 E.01632
G1 X147.345 Y126.406 E.01602
G1 X146.998 Y126.78 E.016
G1 X146.562 Y127.08 E.01659
G1 X146.069 Y127.277 E.01665
G1 X145.569 Y127.357 E.01588
;WIDTH:0.468468
G1 X145.39 Y127.37 E.00635
;WIDTH:0.516936
G1 X145.212 Y127.383 E.00703
;WIDTH:0.565404
G1 X145.033 Y127.395 E.00779
G1 X144.786 Y127.31 E.01135
;WIDTH:0.53677
G1 X144.54 Y127.224 E.0107
;WIDTH:0.508136
G1 X144.096 Y126.955 E.02008
;WIDTH:0.459969
G1 X143.719 Y126.603 E.01789
;WIDTH:0.432461
G1 X143.433 Y126.18 E.01654
;WIDTH:0.417258
G1 X143.245 Y125.716 E.01558
;WIDTH:0.416745
G1 X143.152 Y125.215 E.01584
G1 X143.16 Y124.735 E.01492
;WIDTH:0.415409
G1 X143.256 Y124.248 E.01537
G1 X143.449 Y123.793 E.01531
;WIDTH:0.440312
G1 X143.691 Y123.441 E.01411
;WIDTH:0.466231
G1 X143.988 Y123.13 E.01514
;WIDTH:0.499674
G1 X144.349 Y122.869 E.01692
;WIDTH:0.547805
G1 X144.832 Y122.657 E.02214
;WIDTH:0.568019
G1 X144.97 Y122.625 E.00619
G1 X145.168 Y122.631 E.00865
;WIDTH:0.518679
G1 X145.366 Y122.637 E.00784
;WIDTH:0.469339
G1 X145.563 Y122.643 E.00699
;WIDTH:0.419999
G1 X146.283 Y122.794 E.02307
G1 X146.487 Y122.899 E.00719
M204 S1000
G1 X146.74 Y122.778 F10800
;WIPE_START
G1 F8640
G1 X146.761 Y123.039 E-.07105
G1 X147.153 Y123.368 E-.11817
G1 X147.572 Y123.973 E-.16993
G1 X147.694 Y124.274 E-.07499
G1 X147.798 Y124.774 E-.11792
G1 X147.761 Y125.469 E-.1607
G1 X147.603 Y125.965 E-.1202
G1 X147.345 Y126.406 E-.11797
G1 X147.2 Y126.562 E-.04907
;WIPE_END
G1 Z.4 F720
G1 X145.337 Y122.277 F10800
G1 Z.2 F720
G1 E1 F2100
M204 S800
;TYPE:Perimeter
;WIDTH:0.429714
G1 F1200
G1 X145.455 Y122.261 E.00383
;WIDTH:0.462458
G1 X145.573 Y122.245 E.00415
M204 S1000
;WIPE_START
G1 F8640
G1 X145.455 Y122.261 E-.0275
G1 X145.337 Y122.277 E-.0275
;WIPE_END
G1 E-.945 F2100
G1 Z.4 F720
G1 X146.148 Y127.73 F10800
G1 Z.2 F720
G1 E1 F2100
M204 S800
;WIDTH:0.58606
G1 F1200
G1 X145.974 Y127.739 E.00787
;WIDTH:0.54716
G1 X145.801 Y127.747 E.00726
;WIDTH:0.508259
G1 X145.627 Y127.756 E.00674
;WIDTH:0.469358
G1 X145.564 Y127.755 E.00223
M204 S1000
;WIPE_START
G1 F8640
G1 X145.627 Y127.756 E-.01455
G1 X145.801 Y127.747 E-.04023
G1 X145.974 Y127.739 E-.03999
G1 X146.148 Y127.73 E-.04023
;WIPE_END
G1 E-.865 F2100
G1 Z.4 F720
G1 X151.478 Y122.355 F10800
G1 Z.2 F720
G1 E1 F2100
M204 S800
;TYPE:Solid infill
;WIDTH:0.437352
G1 F1200
G1 X152.009 Y122.886 E.02463
G1 X152.005 Y122.974 E.00289
G1 X151.545 Y122.979 E.01509
G1 X151.09 Y122.525 E.02108
G1 X150.533 Y122.525 E.01827
G1 X150.999 Y122.991 E.02161
G1 X150.634 Y123.184 E.01354
G1 X149.975 Y122.525 E.03057
G1 X149.417 Y122.525 E.0183
G1 X150.396 Y123.504 E.04541
G1 X150.281 Y123.735 E.00846
G1 X150.281 Y123.946 E.00692
G1 X148.86 Y122.525 E.06591
G1 X148.302 Y122.526 E.0183
G1 X150.279 Y124.502 E.09167
G1 X150.277 Y125.058 E.01824
G1 X147.745 Y122.526 E.11744
G1 X147.271 Y122.526 E.01555
G1 X147.626 Y122.83 E.01533
G1 X147.774 Y122.994 E.00725
G1 X148.024 Y123.363 E.01462
G1 X150.444 Y125.783 E.11224
M204 S1000
;WIPE_START
G1 F8640
G1 X148.024 Y123.363 E-.79024
G1 X147.774 Y122.994 E-.10292
G1 X147.626 Y122.83 E-.05101
G1 X147.442 Y122.673 E-.05583
;WIPE_END
G1 Z.4 F720
G1 X151.518 Y126.857 F10800
G1 Z.2 F720
G1 E1 F2100
M204 S800
G1 F1200
G1 X152.033 Y127.372 E.02389
G1 X152.045 Y127.488 E.00382
G1 X151.579 Y127.476 E.01529
G1 X151.117 Y127.013 E.02145
G1 X150.53 Y126.766 E.02089
G1 X150.288 Y126.292 E.01745
G1 X150.278 Y126.174 E.00388
G1 X148.441 Y124.338 E.08518
G1 X148.515 Y124.77 E.01437
G1 X148.504 Y124.959 E.00621
G1 X151.021 Y127.475 E.11672
G1 X150.463 Y127.475 E.0183
G1 X148.472 Y125.485 E.09232
G1 X148.465 Y125.617 E.00434
G1 X148.364 Y125.934 E.01091
G1 X149.905 Y127.475 E.07147
G1 X149.347 Y127.475 E.0183
G1 X148.214 Y126.342 E.05255
G1 X148.007 Y126.693 E.01336
G1 X148.789 Y127.475 E.03627
G1 X148.231 Y127.474 E.0183
G1 X147.766 Y127.01 E.02154
G1 X147.493 Y127.295 E.01294
G1 X147.842 Y127.644 E.01619
M204 S1000
; stop printing object part1.stl id:0 copy 0
; printing object Part3.stl id:2 copy 0
;WIPE_START
G1 F8640
G1 X147.493 Y127.295 E-.11396
G1 X147.766 Y127.01 E-.09113
G1 X148.231 Y127.474 E-.15168
G1 X148.789 Y127.475 E-.12884
G1 X148.007 Y126.693 E-.25536
G1 X148.214 Y126.342 E-.09409
G1 X148.719 Y126.847 E-.16494
;WIPE_END
G1 Z.4 F720
G1 X160.243 Y104.551 F10800
G1 Z.2 F720
G1 E1 F2100
M204 S800
;TYPE:Support material
;WIDTH:0.42
G1 F1200
G1 X159.827 Y104.521 E.01308
G1 X159.187 Y104.572 E.02013
M73 P1 R32
G1 X158.489 Y104.739 E.0225
G1 X157.863 Y105.002 E.02129
G1 X157.3 Y105.348 E.02072
G1 X156.806 Y105.768 E.02033
G1 X156.346 Y106.301 E.02208
G1 X155.962 Y106.939 E.02335
G1 X155.717 Y107.547 E.02055
G1 X155.58 Y108.114 E.01829
G1 X155.517 Y108.811 E.02194
G1 X155.577 Y109.57 E.02387
G1 X155.749 Y110.248 E.02193
G1 X155.988 Y110.818 E.01938
G1 X156.314 Y111.354 E.01967
G1 X156.806 Y111.934 E.02385
G1 X157.301 Y112.355 E.02037
G1 X157.863 Y112.701 E.02069
G1 X158.489 Y112.963 E.02128
G1 X159.187 Y113.131 E.02251
G1 X159.827 Y113.181 E.02013
G1 X160.243 Y113.151 E.01308
G1 X160.243 Y116.409 E.10215
G1 X89.757 Y116.409 E2.21004
G1 X89.757 Y113.151 E.10215
G1 X90.173 Y113.181 E.01308
G1 X90.813 Y113.131 E.02013
G1 X91.51 Y112.963 E.02248
G1 X92.137 Y112.701 E.02131
G1 X92.7 Y112.354 E.02074
G1 X93.194 Y111.934 E.02033
G1 X93.654 Y111.401 E.02208
G1 X94.038 Y110.764 E.02332
G1 X94.283 Y110.155 E.02058
G1 X94.42 Y109.588 E.01829
G1 X94.483 Y108.891 E.02194
G1 X94.423 Y108.132 E.02387
G1 X94.251 Y107.455 E.0219
G1 X94.012 Y106.884 E.01941
G1 X93.686 Y106.348 E.01967
G1 X93.194 Y105.768 E.02385
G1 X92.699 Y105.348 E.02035
G1 X92.137 Y105.002 E.02069
G1 X91.51 Y104.739 E.02132
G1 X90.813 Y104.572 E.02247
G1 X90.173 Y104.521 E.02013
G1 X89.757 Y104.551 E.01308
G1 X89.757 Y101.294 E.10212
G1 X160.243 Y101.294 E2.21004
G1 X160.243 Y104.494 E.10033
M204 S1000
;WIPE_START
G1 F8640
M73 P2 R32
M73 Q2 S33
G1 X160.243 Y101.294 E-.73889
G1 X159.112 Y101.294 E-.26111
;WIPE_END
G1 Z.4 F720
G1 X159.775 Y116.239 F10800
G1 Z.2 F720
G1 E1 F2100
M204 S800
G1 F1200
G1 X159.775 Y113.518 E.08532
G1 X159.356 Y113.485 E.01318
G1 X159.356 Y116.069 E.08102
G1 X158.937 Y116.069 E.01314
G1 X158.937 Y113.423 E.08296
G1 X158.518 Y113.322 E.01351
