; generated by PrusaSlicer 2.6.1+win64 on 2023-10-17 at 12:56:17 UTC


;
;
; 

; external perimeters extrusion width = 0.45mm
; perimeters extrusion width = 0.45mm
; infill extrusion width = 0.45mm
; solid infill extrusion width = 0.45mm
; top infill extrusion width = 0.40mm
; support material extrusion width = 0.35mm
; first layer extrusion width = 0.42mm

; external perimeters extrusion width = 0.45mm
; perimeters extrusion width = 0.45mm
; infill extrusion width = 0.45mm
; solid infill extrusion width = 0.45mm
; top infill extrusion width = 0.40mm
; support material extrusion width = 0.35mm
; first layer extrusion width = 0.42mm

; external perimeters extrusion width = 0.45mm
; perimeters extrusion width = 0.45mm
; infill extrusion width = 0.45mm
; solid infill extrusion width = 0.45mm
; top infill extrusion width = 0.40mm
; support material extrusion width = 0.35mm
; first layer extrusion width = 0.42mm

M73 P0 R24
M73 Q0 S24
M201 X1000 Y1000 Z200 E5000 ; sets maximum accelerations, mm/sec^2
M203 X200 Y200 Z12 E120 ; sets maximum feedrates, mm / sec
M204 S1250 T1250 ; sets acceleration (S) and retract acceleration (R), mm/sec^2
M205 X8.00 Y8.00 Z0.40 E4.50 ; sets the jerk limits, mm/sec
M205 S0 T0 ; sets the minimum extruding and travel feed rate, mm/sec
;TYPE:Custom
M862.3 P "MK3S" ; printer model check
M862.1 P0.4 ; nozzle diameter check
M115 U3.13.0 ; tell printer latest fw version
G90 ; use absolute coordinates
M83 ; extruder relative mode
M104 S230 ; set extruder temp
M140 S85 ; set bed temp
M190 S85 ; wait for bed temp
M109 S230 ; wait for extruder temp
G28 W ; home all without mesh bed level
G80 ; mesh bed leveling

G1 Z0.2 F720
G1 Y-3 F1000 ; go outside print area
G92 E0
G1 X60 E9 F1000 ; intro line
G1 X100 E12.5 F1000 ; intro line

G92 E0
M221 S95

; Don't change E values below. Excessive value can damage the printer.
M907 E430 ; set extruder motor current
G21 ; set units to millimeters
G90 ; use absolute coordinates
M83 ; use relative distances for extrusion
M900 K0.08 ; Filament gcode LA 1.5
M900 K45 ; Filament gcode LA 1.0
M107
;LAYER_CHANGE
;Z:0.2
;HEIGHT:0.2
;BEFORE_LAYER_CHANGE
G92 E0.0
;0.2


G1 E-1 F2100
G1 Z.2 F720
;AFTER_LAYER_CHANGE
;0.2
G1 Z.4
G1 X97.637 Y84.079 F10800
G1 Z.2 F720
G1 E1 F2100
M204 S800
;TYPE:Skirt/Brim
;WIDTH:0.42
G1 F1200
G1 X98.653 Y83.215 E.04182
G1 X105.245 Y80.272 E.22635
G1 X106.214 Y80.065 E.03107
G1 X143.786 Y80.065 E1.17804
G1 X144.755 Y80.272 E.03107
M73 P0 R23
G1 X151.347 Y83.215 E.22635
G1 X152.381 Y84.106 E.0428
G1 X152.755 Y85.386 E.04181
G1 X152.755 Y94.657 E.29069
G1 X152.241 Y123.382 E.9008
G1 X151.827 Y124.681 E.04275
G1 X150.765 Y125.539 E.04281
G1 X149.865 Y125.716 E.02876
G1 X137.023 Y125.716 E.40265
G1 X112.023 Y125.358 E.78394
G1 X110.721 Y124.948 E.0428
G1 X110.004 Y124.181 E.03292
G1 X102.88 Y111.891 E.4454
G1 X97.367 Y95.366 E.5462
M73 P1 R23
M73 Q1 S24
G1 X97.245 Y94.614 E.02389
G1 X97.245 Y85.386 E.28934
G1 X97.619 Y84.136 E.04091
M204 S1000
; printing object Part3.stl id:2 copy 0
;WIPE_START
G1 F8640
G1 X98.653 Y83.215 E-.31973
G1 X101.343 Y82.014 E-.68027
;WIPE_END
G1 Z.4 F720
G1 X133.98 Y106.987 F10800
G1 Z.2 F720
G1 E1 F2100
M204 S800
;TYPE:Support material interface
;WIDTH:0.35
G1 F1200
G1 X134.182 Y106.553 E.01222
G1 X133.915 Y106.553 E.00682
G1 X133.915 Y107.127 E.01466
G1 X133.733 Y107.517 E.01099
G1 X133.853 Y107.846 E.00894
G1 X133.915 Y107.875 E.00175
G1 X133.915 Y108.86 E.02515
G1 X133.408 Y108.86 E.01295
G1 X133.408 Y106.553 E.05891
G1 X133.079 Y106.553 E.0084
G1 X133.079 Y108.86 E.05891
G1 X133.254 Y108.86 E.00447
M204 S1000
;WIPE_START
G1 F8640
G1 X133.079 Y108.86 E-.04041
G1 X133.079 Y106.553 E-.53269
G1 X133.408 Y106.553 E-.07597
G1 X133.408 Y108.073 E-.35093
;WIPE_END
G1 Z.4 F720
G1 X134.054 Y107.94 F10800
M73 Q1 S23
G1 Z.2 F720
G1 E1 F2100
M204 S800
G1 F1200
G1 X134.422 Y108.112 E.01037
G1 X134.422 Y108.86 E.0191
G1 X134.929 Y108.86 E.01295
G1 X134.929 Y108.348 E.01307
G1 X135.297 Y108.52 E.01037
M204 S1000
;WIPE_START
G1 F8640
G1 X134.929 Y108.348 E-.0938
G1 X134.929 Y108.86 E-.11822
G1 X134.422 Y108.86 E-.11707
G1 X134.422 Y108.112 E-.17272
G1 X134.054 Y107.94 E-.0938
;WIPE_END
G1 E-.40439 F2100
G1 Z.4 F720
G1 X135.436 Y111.167 F10800
G1 Z.2 F720
G1 E1 F2100
M204 S800
G1 F1200
G1 X135.436 Y108.584 E.06595
G1 X135.943 Y108.821 E.01429
G1 X135.943 Y111.167 E.0599
G1 X136.45 Y111.167 E.01295
G1 X136.45 Y109.057 E.05388
G1 X136.958 Y109.294 E.01431
G1 X136.958 Y111.167 E.04782
G1 X137.465 Y111.167 E.01295
G1 X137.465 Y109.53 E.0418
G1 X137.972 Y109.767 E.01429
G1 X137.972 Y111.167 E.03575
G1 X138.479 Y111.167 E.01295
G1 X138.479 Y110.003 E.02972
G1 X138.986 Y110.24 E.01429
G1 X138.986 Y111.167 E.02367
G1 X139.493 Y111.167 E.01295
G1 X139.493 Y110.478 E.01759
G1 X140 Y110.715 E.01429
G1 X140 Y111.167 E.01154
G1 X140.507 Y111.167 E.01295
G1 X140.507 Y110.953 E.00546
G1 X140.967 Y111.167 E.01295
G1 X140.661 Y111.167 E.00781
M204 S1000
;WIPE_START
G1 F8640
G1 X140.967 Y111.167 E-.07066
G1 X140.507 Y110.953 E-.11715
G1 X140.507 Y111.167 E-.04941
G1 X140 Y111.167 E-.11707
G1 X140 Y110.715 E-.10437
G1 X139.493 Y110.478 E-.12923
G1 X139.493 Y111.167 E-.15909
G1 X138.986 Y111.167 E-.11707
G1 X138.986 Y110.578 E-.13595
;WIPE_END
G1 Z.4 F720
G1 X142.307 Y113.043 F10800
G1 Z.2 F720
G1 E1 F2100
M204 S800
G1 F1200
G1 X142.307 Y113.474 E.01101
G1 X142.535 Y113.474 E.00582
G1 X142.535 Y111.586 E.04821
G1 X143.042 Y111.586 E.01295
G1 X143.042 Y113.474 E.04821
G1 X143.55 Y113.474 E.01297
G1 X143.55 Y111.586 E.04821
G1 X144.057 Y111.586 E.01295
G1 X144.057 Y113.474 E.04821
G1 X144.564 Y113.474 E.01295
G1 X144.564 Y111.586 E.04821
M204 S1000
G1 X144.579 Y110.792 F10800
M204 S800
;TYPE:Support material
;WIDTH:0.42
G1 F1200
G1 X144.578 Y111.187 E.01238
G1 X144.543 Y111.222 E.00155
G1 X144.453 Y111.222 E.00282
G1 X144.453 Y108.531 E.08437
G1 X144.575 Y108.531 E.00383
G1 X144.578 Y110.735 E.0691
M204 S1000
;WIPE_START
G1 F8640
G1 X144.575 Y108.531 E-.50891
G1 X144.453 Y108.531 E-.02817
G1 X144.453 Y110.536 E-.46292
;WIPE_END
G1 Z.4 F720
G1 X146.746 Y111.167 F10800
G1 Z.2 F720
G1 E1 F2100
M204 S800
;TYPE:Support material interface
;WIDTH:0.35
G1 F1200
G1 X146.921 Y111.167 E.00447
G1 X146.921 Y104.246 E.17672
G1 X146.592 Y104.246 E.0084
G1 X146.592 Y111.167 E.17672
G1 X146.085 Y111.167 E.01295
G1 X146.085 Y104.246 E.17672
G1 X145.578 Y104.246 E.01295
G1 X145.578 Y111.167 E.17672
G1 X145.071 Y111.167 E.01295
G1 X145.071 Y104.246 E.17672
G1 X144.614 Y104.246 E.01167
G1 X144.614 Y104.739 E.01259
G1 X144.686 Y104.739 E.00184
G1 X144.825 Y104.878 E.00502
M204 S1000
G1 X144.535 Y105.103 F10800
M204 S800
;TYPE:Support material
;WIDTH:0.42
G1 F1200
G1 X144.571 Y105.138 E.00157
G1 X144.574 Y107.682 E.07977
G1 X144.451 Y107.682 E.00386
G1 X144.444 Y105.103 E.08086
G1 X144.479 Y105.103 E.0011
M204 S1000
;WIPE_START
G1 F8640
G1 X144.444 Y105.103 E-.00808
G1 X144.451 Y107.682 E-.5955
G1 X144.574 Y107.682 E-.0284
G1 X144.572 Y106.088 E-.36802
;WIPE_END
G1 Z.4 F720
G1 X147.251 Y103.882 F10800
G1 Z.2 F720
G1 E1 F2100
M204 S800
G1 F1200
G1 X144.251 Y103.882 E.09406
G1 X144.251 Y104.77 E.02784
G1 X144.163 Y104.683 E.00388
G1 X142.659 Y104.679 E.04716
G1 X141.558 Y104.619 E.03457
G1 X140.4 Y104.48 E.03657
G1 X139.364 Y104.292 E.03301
G1 X139.364 Y101.303 E.09372
G1 X147.251 Y101.303 E.24729
G1 X147.251 Y103.826 E.07911
M204 S1000
G1 X146.704 Y103.713 F10800
M204 S800
G1 F1200
G1 X146.704 Y101.642 E.06493
G1 X146.285 Y101.642 E.01314
G1 X146.285 Y103.543 E.0596
G1 X145.866 Y103.543 E.01314
G1 X145.866 Y101.642 E.0596
G1 X145.447 Y101.642 E.01314
G1 X145.447 Y103.543 E.0596
G1 X145.028 Y103.543 E.01314
G1 X145.028 Y101.642 E.0596
G1 X144.609 Y101.642 E.01314
G1 X144.609 Y103.543 E.0596
G1 X144.19 Y103.543 E.01314
G1 X144.19 Y101.642 E.0596
G1 X143.771 Y101.642 E.01314
G1 X143.771 Y104.343 E.08469
G1 X143.352 Y104.343 E.01314
G1 X143.352 Y101.642 E.08469
G1 X142.933 Y101.642 E.01314
G1 X142.933 Y104.342 E.08466
G1 X142.514 Y104.334 E.01314
G1 X142.514 Y101.642 E.08441
G1 X142.095 Y101.642 E.01314
G1 X142.095 Y104.316 E.08384
G1 X141.676 Y104.287 E.01317
G1 X141.676 Y101.642 E.08293
G1 X141.257 Y101.642 E.01314
G1 X141.257 Y104.248 E.08171
G1 X140.838 Y104.198 E.01323
G1 X140.838 Y101.642 E.08014
G1 X140.419 Y101.642 E.01314
G1 X140.419 Y104.139 E.07829
G1 X140 Y104.069 E.01332
G1 X140 Y101.472 E.08143
M204 S1000
;WIPE_START
G1 F8640
G1 X140 Y104.069 E-.59965
G1 X140.419 Y104.139 E-.09809
G1 X140.419 Y102.83 E-.30226
;WIPE_END
G1 Z.4 F720
G1 X144.564 Y118.089 F10800
G1 Z.2 F720
M73 Q2 S23
G1 E1 F2100
M204 S800
;TYPE:Support material interface
;WIDTH:0.35
G1 F1200
G1 X144.564 Y120.396 E.05891
G1 X144.057 Y120.396 E.01295
M73 P2 R23
G1 X144.057 Y118.089 E.05891
G1 X143.55 Y118.089 E.01295
G1 X143.55 Y120.396 E.05891
G1 X143.042 Y120.396 E.01297
G1 X143.042 Y118.089 E.05891
G1 X142.535 Y118.089 E.01295
G1 X142.535 Y120.396 E.05891
G1 X142.307 Y120.396 E.00582
G1 X142.307 Y119.964 E.01103
M204 S1000
;WIPE_START
G1 F8640
G1 X142.307 Y120.396 E-.09975
G1 X142.535 Y120.396 E-.05265
G1 X142.535 Y118.089 E-.53269
G1 X143.042 Y118.089 E-.11707
G1 X143.042 Y118.946 E-.19784
;WIPE_END
G1 Z.4 F720
G1 X149.865 Y123.339 F10800
G1 Z.2 F720
G1 E1 F2100
M204 S800
;TYPE:Support material
;WIDTH:0.42
G1 F1200
G1 X137.057 Y123.339 E.40159
G1 X137.057 Y111.531 E.37023
G1 X141.828 Y111.531 E.14959
G1 X141.901 Y111.202 E.01057
G1 X137.057 Y108.939 E.16764
G1 X137.057 Y108.924 E.00047
G1 X141.976 Y111.223 E.17025
G1 X141.943 Y111.223 E.00103
G1 X141.943 Y113.838 E.08199
G1 X144.978 Y113.838 E.09516
G1 X144.978 Y111.531 E.07233
G1 X147.285 Y111.531 E.07233
G1 X147.285 Y108.531 E.09406
G1 X149.865 Y108.531 E.08089
G1 X149.865 Y123.283 E.46254
M204 S1000
G1 X141.943 Y120.759 F10800
M204 S800
G1 F1200
G1 X141.943 Y117.725 E.09513
G1 X144.978 Y117.725 E.09516
G1 X144.978 Y120.759 E.09513
G1 X142 Y120.759 E.09337
M204 S1000
G1 X149.217 Y123.169 F10800
M204 S800
G1 F1200
G1 X149.217 Y108.87 E.44834
G1 X148.799 Y108.87 E.01311
G1 X148.799 Y123 E.44304
G1 X148.38 Y123 E.01314
G1 X148.38 Y108.87 E.44304
G1 X147.961 Y108.87 E.01314
G1 X147.961 Y123 E.44304
G1 X147.542 Y123 E.01314
G1 X147.542 Y111.87 E.34897
G1 X147.123 Y111.87 E.01314
G1 X147.123 Y123 E.34897
G1 X146.704 Y123 E.01314
G1 X146.704 Y111.87 E.34897
G1 X146.285 Y111.87 E.01314
G1 X146.285 Y123 E.34897
G1 X145.866 Y123 E.01314
G1 X145.866 Y111.87 E.34897
G1 X145.447 Y111.87 E.01314
G1 X145.447 Y123 E.34897
G1 X145.028 Y123 E.01314
G1 X145.028 Y121.099 E.0596
G1 X144.609 Y121.099 E.01314
G1 X144.609 Y123 E.0596
G1 X144.19 Y123 E.01314
G1 X144.19 Y121.099 E.0596
G1 X143.771 Y121.099 E.01314
G1 X143.771 Y123 E.0596
G1 X143.352 Y123 E.01314
G1 X143.352 Y121.099 E.0596
G1 X142.933 Y121.099 E.01314
G1 X142.933 Y123 E.0596
G1 X142.514 Y123 E.01314
G1 X142.514 Y121.099 E.0596
G1 X142.095 Y121.099 E.01314
G1 X142.095 Y123 E.0596
G1 X141.676 Y123 E.01314
G1 X141.676 Y114.177 E.27664
G1 X142.095 Y114.177 E.01314
G1 X142.095 Y117.386 E.10062
G1 X142.514 Y117.386 E.01314
G1 X142.514 Y114.177 E.10062
G1 X142.933 Y114.177 E.01314
G1 X142.933 Y117.386 E.10062
M73 Q3 S23
G1 X143.352 Y117.386 E.01314
M73 P3 R23
G1 X143.352 Y114.177 E.10062
G1 X143.771 Y114.177 E.01314
G1 X143.771 Y117.386 E.10062
G1 X144.19 Y117.386 E.01314
G1 X144.19 Y114.177 E.10062
G1 X144.609 Y114.177 E.01314
G1 X144.609 Y117.386 E.10062
G1 X145.028 Y117.386 E.01314
G1 X145.028 Y114.008 E.10591
M204 S1000
;WIPE_START
G1 F8640
G1 X145.028 Y117.386 E-.77999
G1 X144.609 Y117.386 E-.09675
G1 X144.609 Y116.852 E-.12326
;WIPE_END
G1 Z.4 F720
G1 X141.257 Y123.169 F10800
G1 Z.2 F720
G1 E1 F2100
M204 S800
G1 F1200
G1 X141.257 Y111.87 E.35427
G1 X140.838 Y111.87 E.01314
G1 X140.838 Y123 E.34897
G1 X140.419 Y123 E.01314
G1 X140.419 Y111.87 E.34897
G1 X140 Y111.87 E.01314
G1 X140 Y123 E.34897
G1 X139.581 Y123 E.01314
G1 X139.581 Y111.87 E.34897
G1 X139.162 Y111.87 E.01314
G1 X139.162 Y123 E.34897
G1 X138.743 Y123 E.01314
G1 X138.743 Y111.87 E.34897
G1 X138.324 Y111.87 E.01314
G1 X138.324 Y123 E.34897
G1 X137.905 Y123 E.01314
G1 X137.905 Y111.87 E.34897
G1 X137.486 Y111.87 E.01314
G1 X137.486 Y123.169 E.35427
M204 S1000
;WIPE_START
G1 F8640
G1 X137.486 Y118.838 E-1
;WIPE_END
G1 Z.4 F720
G1 X143.185 Y110.351 F10800
G1 Z.2 F720
G1 E1 F2100
M204 S800
;TYPE:Perimeter
;WIDTH:0.419999
G1 F1200
G1 X143.155 Y110.375 E.0012
G1 X135.42 Y106.763 E.26766
G1 X136.342 Y104.787 E.06837
G1 X137.24 Y105.066 E.02948
G1 X138.341 Y105.36 E.03573
G1 X139.114 Y105.534 E.02484
G1 X140.192 Y105.729 E.03435
G1 X141.045 Y105.841 E.02697
G1 X141.921 Y105.916 E.02757
G1 X143.179 Y105.948 E.03946
G1 X143.185 Y110.291 E.13617
M204 S1000
G1 X143.563 Y110.753 F10800
M204 S800
;TYPE:External perimeter
G1 F1200
G1 X143.071 Y110.753 E.01543
G1 X134.919 Y106.945 E.28211
G1 X136.139 Y104.329 E.0905
G1 X137.331 Y104.7 E.03914
G1 X138.417 Y104.99 E.03524
G1 X139.181 Y105.163 E.02456
G1 X140.259 Y105.358 E.03435
G1 X141.078 Y105.466 E.0259
G1 X141.937 Y105.539 E.02703
G1 X142.643 Y105.568 E.02215
G1 X143.555 Y105.572 E.0286
G1 X143.563 Y110.693 E.16057
M204 S1000
G1 X143.205 Y110.573 F10800
;WIPE_START
G1 F8640
G1 X143.071 Y110.753 E-.11445
G1 X139.596 Y109.13 E-.88555
;WIPE_END
G1 Z.4 F720
G1 X143.011 Y106.938 F10800
G1 Z.2 F720
G1 E1 F2100
M204 S800
;TYPE:Solid infill
;WIDTH:0.446928
G1 F1200
G1 X142.339 Y106.267 E.0319
G1 X141.743 Y106.242 E.02004
G1 X142.841 Y107.34 E.05216
G1 X142.842 Y107.913 E.01925
G1 X141.118 Y106.188 E.08193
G1 X140.466 Y106.108 E.02207
G1 X142.843 Y108.485 E.11293
G1 X142.844 Y109.057 E.01922
G1 X139.787 Y106 E.14523
G1 X139.09 Y105.874 E.02379
G1 X142.845 Y109.629 E.17839
G1 X142.845 Y109.856 E.00763
G1 X142.199 Y109.554 E.02396
G1 X138.355 Y105.711 E.1826
G1 X137.581 Y105.508 E.02688
G1 X141.127 Y109.054 E.16846
G1 X140.054 Y108.553 E.03978
G1 X136.78 Y105.279 E.15554
G1 X136.524 Y105.199 E.00901
G1 X136.398 Y105.468 E.00998
G1 X138.982 Y108.052 E.12276
G1 X137.91 Y107.551 E.03975
G1 X136.217 Y105.858 E.08043
G1 X136.035 Y106.248 E.01446
G1 X137.19 Y107.402 E.05485
M204 S1000
; stop printing object Part3.stl id:2 copy 0
; printing object Part2.stl id:1 copy 0
;WIPE_START
G1 F8640
G1 X136.035 Y106.248 E-.377
G1 X136.217 Y105.858 E-.09938
G1 X137.821 Y107.462 E-.52362
;WIPE_END
G1 Z.4 F720
G1 X121.746 Y110.81 F10800
G1 Z.2 F720
G1 E1 F2100
M204 S800
;TYPE:Support material interface
;WIDTH:0.35
G1 F1200
G1 X121.921 Y110.81 E.00447
G1 X121.921 Y103.888 E.17674
G1 X121.592 Y103.888 E.0084
G1 X121.592 Y110.81 E.17674
G1 X121.085 Y110.81 E.01295
M73 P4 R23
M73 Q4 S23
G1 X121.085 Y103.888 E.17674
G1 X120.578 Y103.888 E.01295
G1 X120.578 Y110.81 E.17674
G1 X120.343 Y110.81 E.006
G1 X120.396 Y110.756 E.00193
G1 X120.396 Y110.453 E.00774
M204 S1000
G1 X120.033 Y110.606 F10800
M204 S800
;TYPE:Support material
;WIDTH:0.42
G1 F1200
G1 X119.998 Y110.641 E.00155
G1 X119.908 Y110.641 E.00282
G1 X119.908 Y108.173 E.07738
G1 X120.033 Y108.173 E.00392
G1 X120.033 Y110.549 E.0745
M204 S1000
G1 X119.564 Y111.004 F10800
M204 S800
;TYPE:Support material interface
;WIDTH:0.35
G1 F1200
G1 X119.564 Y113.117 E.05395
G1 X119.057 Y113.117 E.01295
G1 X119.057 Y111.004 E.05395
G1 X118.55 Y111.004 E.01295
G1 X118.55 Y113.117 E.05395
G1 X118.042 Y113.117 E.01297
G1 X118.042 Y111.004 E.05395
G1 X117.535 Y111.004 E.01295
G1 X117.535 Y113.117 E.05395
G1 X117.307 Y113.117 E.00582
G1 X117.307 Y112.685 E.01103
M204 S1000
;WIPE_START
G1 F8640
G1 X117.307 Y113.117 E-.09975
G1 X117.535 Y113.117 E-.05265
G1 X117.535 Y111.004 E-.4879
G1 X118.042 Y111.004 E-.11707
G1 X118.042 Y112.055 E-.24263
;WIPE_END
G1 Z.4 F720
G1 X112.618 Y113.117 F10800
G1 Z.2 F720
G1 E1 F2100
M204 S800
G1 F1200
G1 X112.693 Y113.117 E.00192
G1 X112.693 Y112.165 E.02431
G1 X112.465 Y112.394 E.00825
G1 X112.465 Y113.117 E.01846
G1 X111.958 Y113.117 E.01295
G1 X111.958 Y112.779 E.00863
G1 X111.728 Y112.779 E.00587
G1 X111.45 Y112.501 E.01004
G1 X111.45 Y113.117 E.01573
G1 X110.943 Y113.117 E.01295
G1 X110.943 Y111.994 E.02867
G1 X110.436 Y111.487 E.01831
G1 X110.436 Y113.117 E.04162
M204 S1000
;WIPE_START
G1 F8640
G1 X110.436 Y111.487 E-.37637
G1 X110.943 Y111.994 E-.16556
