; generated by PrusaSlicer 2.6.1+win64 on 2023-10-16 at 15:49:52 UTC


;
;
; 

; external perimeters extrusion width = 0.45mm
; perimeters extrusion width = 0.45mm
; infill extrusion width = 0.45mm
; solid infill extrusion width = 0.45mm
; top infill extrusion width = 0.40mm
; support material extrusion width = 0.35mm
; first layer extrusion width = 0.42mm

; external perimeters extrusion width = 0.45mm
; perimeters extrusion width = 0.45mm
; infill extrusion width = 0.45mm
; solid infill extrusion width = 0.45mm
; top infill extrusion width = 0.40mm
; support material extrusion width = 0.35mm
; first layer extrusion width = 0.42mm

; external perimeters extrusion width = 0.45mm
; perimeters extrusion width = 0.45mm
; infill extrusion width = 0.45mm
; solid infill extrusion width = 0.45mm
; top infill extrusion width = 0.40mm
; support material extrusion width = 0.35mm
; first layer extrusion width = 0.42mm

M73 P0 R25
M73 Q0 S25
M201 X1000 Y1000 Z200 E5000 ; sets maximum accelerations, mm/sec^2
M203 X200 Y200 Z12 E120 ; sets maximum feedrates, mm / sec
M204 S1250 T1250 ; sets acceleration (S) and retract acceleration (R), mm/sec^2
M205 X8.00 Y8.00 Z0.40 E4.50 ; sets the jerk limits, mm/sec
M205 S0 T0 ; sets the minimum extruding and travel feed rate, mm/sec
;TYPE:Custom
M862.3 P "MK3S" ; printer model check
M862.1 P0.4 ; nozzle diameter check
M115 U3.13.0 ; tell printer latest fw version
G90 ; use absolute coordinates
M83 ; extruder relative mode
M104 S230 ; set extruder temp
M140 S85 ; set bed temp
M190 S85 ; wait for bed temp
M109 S230 ; wait for extruder temp
G28 W ; home all without mesh bed level
G80 ; mesh bed leveling

G1 Z0.2 F720
G1 Y-3 F1000 ; go outside print area
G92 E0
G1 X60 E9 F1000 ; intro line
G1 X100 E12.5 F1000 ; intro line

G92 E0
M221 S95

; Don't change E values below. Excessive value can damage the printer.
M907 E430 ; set extruder motor current
G21 ; set units to millimeters
G90 ; use absolute coordinates
M83 ; use relative distances for extrusion
M900 K0.08 ; Filament gcode LA 1.5
M900 K45 ; Filament gcode LA 1.0
M107
;LAYER_CHANGE
;Z:0.2
;HEIGHT:0.2
;BEFORE_LAYER_CHANGE
G92 E0.0
;0.2


G1 E-1 F2100
G1 Z.2 F720
;AFTER_LAYER_CHANGE
;0.2
G1 Z.4
G1 X93.022 Y88.079 F10800
G1 Z.2 F720
G1 E1 F2100
M204 S800
;TYPE:Skirt/Brim
;WIDTH:0.42
G1 F1200
G1 X94.039 Y87.215 E.04184
G1 X100.631 Y84.272 E.22635
G1 X101.6 Y84.065 E.03107
G1 X148.4 Y84.065 E1.46738
G1 X149.369 Y84.272 E.03107
G1 X155.961 Y87.215 E.22635
G1 X156.995 Y88.106 E.0428
G1 X157.369 Y89.386 E.04181
G1 X157.332 Y99.034 E.30251
G1 X152.204 Y127.592 E.90974
G1 X151.588 Y128.809 E.04277
G1 X149.865 Y129.549 E.0588
G1 X136.874 Y129.542 E.40732
G1 X106.874 Y127.235 E.94341
G1 X105.601 Y126.744 E.04278
G1 X104.896 Y125.856 E.03555
G1 X92.848 Y99.606 E.9056
G1 X92.631 Y98.614 E.03184
M73 P1 R25
M73 Q1 S25
G1 X92.631 Y89.386 E.28934
G1 X93.005 Y88.136 E.04091
M204 S1000
; printing object Part3.stl id:2 copy 0
;WIPE_START
G1 F8640
G1 X94.039 Y87.215 E-.31973
G1 X96.729 Y86.014 E-.68027
;WIPE_END
G1 Z.4 F720
G1 X133.98 Y110.82 F10800
G1 Z.2 F720
G1 E1 F2100
M204 S800
;TYPE:Support material interface
;WIDTH:0.35
G1 F1200
G1 X134.182 Y110.386 E.01222
G1 X133.915 Y110.386 E.00682
M73 P1 R24
G1 X133.915 Y110.959 E.01463
G1 X133.733 Y111.349 E.01099
G1 X133.853 Y111.679 E.00897
G1 X133.915 Y111.708 E.00175
G1 X133.915 Y112.693 E.02515
G1 X133.408 Y112.693 E.01295
G1 X133.408 Y110.386 E.05891
G1 X133.079 Y110.386 E.0084
G1 X133.079 Y112.693 E.05891
G1 X133.254 Y112.693 E.00447
M204 S1000
;WIPE_START
G1 F8640
G1 X133.079 Y112.693 E-.04041
G1 X133.079 Y110.386 E-.53269
G1 X133.408 Y110.386 E-.07597
G1 X133.408 Y111.906 E-.35093
;WIPE_END
G1 Z.4 F720
G1 X134.054 Y111.773 F10800
G1 Z.2 F720
G1 E1 F2100
M204 S800
G1 F1200
G1 X134.422 Y111.944 E.01036
G1 X134.422 Y112.693 E.01912
G1 X134.929 Y112.693 E.01295
G1 X134.929 Y112.181 E.01307
G1 X135.297 Y112.352 E.01036
M204 S1000
;WIPE_START
G1 F8640
G1 X134.929 Y112.181 E-.0937
G1 X134.929 Y112.693 E-.11822
G1 X134.422 Y112.693 E-.11707
G1 X134.422 Y111.944 E-.17295
G1 X134.054 Y111.773 E-.0937
;WIPE_END
G1 E-.40436 F2100
G1 Z.4 F720
G1 X135.436 Y115 F10800
G1 Z.2 F720
G1 E1 F2100
M204 S800
G1 F1200
G1 X135.436 Y112.417 E.06595
G1 X135.943 Y112.654 E.01429
G1 X135.943 Y115 E.0599
G1 X136.45 Y115 E.01295
G1 X136.45 Y112.89 E.05388
G1 X136.958 Y113.126 E.0143
G1 X136.958 Y115 E.04785
G1 X137.465 Y115 E.01295
G1 X137.465 Y113.363 E.0418
G1 X137.972 Y113.599 E.01428
G1 X137.972 Y115 E.03577
G1 X138.479 Y115 E.01295
G1 X138.479 Y113.836 E.02972
G1 X138.986 Y114.073 E.01429
G1 X138.986 Y115 E.02367
G1 X139.493 Y115 E.01295
G1 X139.493 Y114.311 E.01759
G1 X140 Y114.548 E.01429
G1 X140 Y115 E.01154
G1 X140.507 Y115 E.01295
G1 X140.507 Y114.786 E.00546
G1 X140.967 Y115 E.01295
G1 X140.661 Y115 E.00781
M204 S1000
;WIPE_START
G1 F8640
G1 X140.967 Y115 E-.07066
G1 X140.507 Y114.786 E-.11715
G1 X140.507 Y115 E-.04941
G1 X140 Y115 E-.11707
G1 X140 Y114.548 E-.10437
G1 X139.493 Y114.311 E-.12923
G1 X139.493 Y115 E-.15909
G1 X138.986 Y115 E-.11707
G1 X138.986 Y114.411 E-.13595
;WIPE_END
G1 Z.4 F720
G1 X142.307 Y116.876 F10800
G1 Z.2 F720
G1 E1 F2100
M204 S800
G1 F1200
G1 X142.307 Y117.307 E.01101
G1 X142.535 Y117.307 E.00582
G1 X142.535 Y115.419 E.04821
G1 X143.042 Y115.419 E.01295
G1 X143.042 Y117.307 E.04821
G1 X143.55 Y117.307 E.01297
G1 X143.55 Y115.419 E.04821
G1 X144.057 Y115.419 E.01295
G1 X144.057 Y117.307 E.04821
G1 X144.564 Y117.307 E.01295
G1 X144.564 Y115.419 E.04821
M204 S1000
G1 X144.579 Y114.625 F10800
M204 S800
;TYPE:Support material
;WIDTH:0.42
G1 F1200
G1 X144.578 Y115.02 E.01238
G1 X144.543 Y115.055 E.00155
G1 X144.453 Y115.055 E.00282
G1 X144.453 Y112.364 E.08437
G1 X144.575 Y112.364 E.00383
G1 X144.578 Y114.568 E.0691
M204 S1000
;WIPE_START
G1 F8640
G1 X144.575 Y112.364 E-.50891
G1 X144.453 Y112.364 E-.02817
G1 X144.453 Y114.369 E-.46292
;WIPE_END
G1 Z.4 F720
G1 X146.746 Y115 F10800
G1 Z.2 F720
G1 E1 F2100
M204 S800
;TYPE:Support material interface
;WIDTH:0.35
G1 F1200
G1 X146.921 Y115 E.00447
G1 X146.921 Y108.079 E.17672
G1 X146.592 Y108.079 E.0084
G1 X146.592 Y115 E.17672
G1 X146.085 Y115 E.01295
G1 X146.085 Y108.079 E.17672
G1 X145.578 Y108.079 E.01295
G1 X145.578 Y115 E.17672
G1 X145.071 Y115 E.01295
G1 X145.071 Y108.079 E.17672
G1 X144.614 Y108.079 E.01167
G1 X144.614 Y108.572 E.01259
G1 X144.686 Y108.572 E.00184
G1 X144.825 Y108.711 E.00502
M204 S1000
G1 X144.535 Y108.935 F10800
M204 S800
;TYPE:Support material
;WIDTH:0.42
G1 F1200
G1 X144.571 Y108.97 E.00157
G1 X144.574 Y111.515 E.0798
G1 X144.451 Y111.515 E.00386
G1 X144.444 Y108.935 E.08089
G1 X144.479 Y108.935 E.0011
M204 S1000
;WIPE_START
G1 F8640
G1 X144.444 Y108.935 E-.00808
G1 X144.451 Y111.515 E-.59573
G1 X144.574 Y111.515 E-.0284
G1 X144.572 Y109.922 E-.36779
;WIPE_END
G1 Z.4 F720
G1 X147.251 Y107.715 F10800
G1 Z.2 F720
G1 E1 F2100
M204 S800
G1 F1200
G1 X144.251 Y107.715 E.09406
G1 X144.251 Y108.602 E.02781
G1 X144.163 Y108.515 E.00388
G1 X142.659 Y108.511 E.04716
G1 X141.558 Y108.451 E.03457
G1 X140.4 Y108.312 E.03657
G1 X139.364 Y108.125 E.03301
G1 X139.364 Y105.135 E.09375
G1 X147.251 Y105.135 E.24729
G1 X147.251 Y107.659 E.07914
M204 S1000
G1 X146.704 Y107.545 F10800
M204 S800
G1 F1200
G1 X146.704 Y105.475 E.0649
G1 X146.285 Y105.475 E.01314
G1 X146.285 Y107.376 E.0596
G1 X145.866 Y107.376 E.01314
G1 X145.866 Y105.475 E.0596
G1 X145.447 Y105.475 E.01314
G1 X145.447 Y107.376 E.0596
G1 X145.028 Y107.376 E.01314
G1 X145.028 Y105.475 E.0596
G1 X144.609 Y105.475 E.01314
G1 X144.609 Y107.376 E.0596
G1 X144.19 Y107.376 E.01314
G1 X144.19 Y105.475 E.0596
G1 X143.771 Y105.475 E.01314
G1 X143.771 Y108.176 E.08469
M73 Q1 S24
G1 X143.352 Y108.176 E.01314
G1 X143.352 Y105.475 E.08469
G1 X142.933 Y105.475 E.01314
G1 X142.933 Y108.175 E.08466
G1 X142.514 Y108.167 E.01314
G1 X142.514 Y105.475 E.08441
G1 X142.095 Y105.475 E.01314
G1 X142.095 Y108.149 E.08384
G1 X141.676 Y108.12 E.01317
G1 X141.676 Y105.475 E.08293
G1 X141.257 Y105.475 E.01314
G1 X141.257 Y108.081 E.08171
G1 X140.838 Y108.031 E.01323
G1 X140.838 Y105.475 E.08014
G1 X140.419 Y105.475 E.01314
G1 X140.419 Y107.972 E.07829
G1 X140 Y107.902 E.01332
G1 X140 Y105.305 E.08143
M204 S1000
;WIPE_START
G1 F8640
G1 X140 Y107.902 E-.59965
G1 X140.419 Y107.972 E-.09809
G1 X140.419 Y106.663 E-.30226
;WIPE_END
G1 Z.4 F720
G1 X144.564 Y121.921 F10800
G1 Z.2 F720
G1 E1 F2100
M204 S800
;TYPE:Support material interface
;WIDTH:0.35
G1 F1200
G1 X144.564 Y124.228 E.05891
G1 X144.057 Y124.228 E.01295
G1 X144.057 Y121.921 E.05891
G1 X143.55 Y121.921 E.01295
G1 X143.55 Y124.228 E.05891
G1 X143.042 Y124.228 E.01297
G1 X143.042 Y121.921 E.05891
G1 X142.535 Y121.921 E.01295
M73 Q2 S24
G1 X142.535 Y124.228 E.05891
G1 X142.307 Y124.228 E.00582
G1 X142.307 Y123.797 E.01101
M204 S1000
;WIPE_START
G1 F8640
M73 P2 R24
G1 X142.307 Y124.228 E-.09952
G1 X142.535 Y124.228 E-.05265
G1 X142.535 Y121.921 E-.53269
G1 X143.042 Y121.921 E-.11707
G1 X143.042 Y122.779 E-.19807
;WIPE_END
G1 Z.4 F720
G1 X149.865 Y127.172 F10800
G1 Z.2 F720
G1 E1 F2100
M204 S800
;TYPE:Support material
;WIDTH:0.42
G1 F1200
G1 X137.057 Y127.172 E.40159
G1 X137.057 Y115.364 E.37023
G1 X141.828 Y115.364 E.14959
G1 X141.901 Y115.034 E.0106
G1 X137.057 Y112.771 E.16764
G1 X137.057 Y112.756 E.00047
G1 X141.976 Y115.055 E.17025
G1 X141.943 Y115.055 E.00103
G1 X141.943 Y117.671 E.08202
G1 X144.978 Y117.671 E.09516
G1 X144.978 Y115.364 E.07233
G1 X147.285 Y115.364 E.07233
G1 X147.285 Y112.364 E.09406
G1 X149.865 Y112.364 E.08089
G1 X149.865 Y127.115 E.46251
M204 S1000
G1 X141.943 Y124.592 F10800
M204 S800
G1 F1200
G1 X141.943 Y121.558 E.09513
G1 X144.978 Y121.558 E.09516
G1 X144.978 Y124.592 E.09513
G1 X142 Y124.592 E.09337
M204 S1000
G1 X149.217 Y127.002 F10800
M204 S800
G1 F1200
G1 X149.217 Y112.703 E.44834
G1 X148.799 Y112.703 E.01311
G1 X148.799 Y126.832 E.443
G1 X148.38 Y126.832 E.01314
G1 X148.38 Y112.703 E.443
G1 X147.961 Y112.703 E.01314
G1 X147.961 Y126.832 E.443
G1 X147.542 Y126.832 E.01314
G1 X147.542 Y115.703 E.34894
G1 X147.123 Y115.703 E.01314
G1 X147.123 Y126.832 E.34894
G1 X146.704 Y126.832 E.01314
G1 X146.704 Y115.703 E.34894
G1 X146.285 Y115.703 E.01314
G1 X146.285 Y126.832 E.34894
G1 X145.866 Y126.832 E.01314
G1 X145.866 Y115.703 E.34894
G1 X145.447 Y115.703 E.01314
G1 X145.447 Y126.832 E.34894
G1 X145.028 Y126.832 E.01314
G1 X145.028 Y124.931 E.0596
G1 X144.609 Y124.931 E.01314
G1 X144.609 Y126.832 E.0596
G1 X144.19 Y126.832 E.01314
G1 X144.19 Y124.931 E.0596
G1 X143.771 Y124.931 E.01314
G1 X143.771 Y126.832 E.0596
G1 X143.352 Y126.832 E.01314
G1 X143.352 Y124.931 E.0596
G1 X142.933 Y124.931 E.01314
G1 X142.933 Y126.832 E.0596
G1 X142.514 Y126.832 E.01314
G1 X142.514 Y124.931 E.0596
G1 X142.095 Y124.931 E.01314
G1 X142.095 Y126.832 E.0596
G1 X141.676 Y126.832 E.01314
G1 X141.676 Y118.01 E.27661
G1 X142.095 Y118.01 E.01314
G1 X142.095 Y121.218 E.10058
G1 X142.514 Y121.218 E.01314
G1 X142.514 Y118.01 E.10058
G1 X142.933 Y118.01 E.01314
G1 X142.933 Y121.218 E.10058
G1 X143.352 Y121.218 E.01314
G1 X143.352 Y118.01 E.10058
G1 X143.771 Y118.01 E.01314
G1 X143.771 Y121.218 E.10058
G1 X144.19 Y121.218 E.01314
G1 X144.19 Y118.01 E.10058
G1 X144.609 Y118.01 E.01314
G1 X144.609 Y121.218 E.10058
G1 X145.028 Y121.218 E.01314
G1 X145.028 Y117.84 E.10591
M204 S1000
;WIPE_START
G1 F8640
G1 X145.028 Y121.218 E-.77999
G1 X144.609 Y121.218 E-.09675
G1 X144.609 Y120.684 E-.12326
;WIPE_END
G1 Z.4 F720
G1 X141.257 Y127.002 F10800
M73 Q3 S24
G1 Z.2 F720
M73 P3 R24
G1 E1 F2100
M204 S800
G1 F1200
G1 X141.257 Y115.703 E.35427
G1 X140.838 Y115.703 E.01314
G1 X140.838 Y126.832 E.34894
G1 X140.419 Y126.832 E.01314
G1 X140.419 Y115.703 E.34894
G1 X140 Y115.703 E.01314
G1 X140 Y126.832 E.34894
G1 X139.581 Y126.832 E.01314
G1 X139.581 Y115.703 E.34894
G1 X139.162 Y115.703 E.01314
G1 X139.162 Y126.832 E.34894
G1 X138.743 Y126.832 E.01314
G1 X138.743 Y115.703 E.34894
G1 X138.324 Y115.703 E.01314
G1 X138.324 Y126.832 E.34894
G1 X137.905 Y126.832 E.01314
G1 X137.905 Y115.703 E.34894
G1 X137.486 Y115.703 E.01314
G1 X137.486 Y127.002 E.35427
M204 S1000
;WIPE_START
G1 F8640
G1 X137.486 Y122.671 E-1
;WIPE_END
G1 Z.4 F720
G1 X143.185 Y114.183 F10800
G1 Z.2 F720
G1 E1 F2100
M204 S800
;TYPE:Perimeter
;WIDTH:0.419999
G1 F1200
G1 X143.155 Y114.208 E.00122
G1 X135.42 Y110.596 E.26766
G1 X136.342 Y108.62 E.06837
G1 X137.24 Y108.899 E.02948
G1 X138.341 Y109.193 E.03573
G1 X139.114 Y109.367 E.02484
G1 X140.192 Y109.562 E.03435
G1 X141.045 Y109.674 E.02697
G1 X141.921 Y109.748 E.02756
G1 X143.179 Y109.78 E.03946
G1 X143.185 Y114.123 E.13617
M204 S1000
G1 X143.563 Y114.585 F10800
M204 S800
;TYPE:External perimeter
G1 F1200
G1 X143.071 Y114.585 E.01543
G1 X134.919 Y110.778 E.2821
G1 X136.139 Y108.162 E.0905
G1 X137.331 Y108.532 E.03913
G1 X138.417 Y108.823 E.03525
G1 X139.181 Y108.996 E.02456
G1 X140.259 Y109.191 E.03435
G1 X141.078 Y109.298 E.0259
G1 X141.937 Y109.372 E.02703
G1 X142.643 Y109.401 E.02215
G1 X143.555 Y109.404 E.0286
G1 X143.563 Y114.525 E.16057
M204 S1000
G1 X143.205 Y114.406 F10800
;WIPE_START
G1 F8640
G1 X143.071 Y114.585 E-.11445
G1 X139.596 Y112.962 E-.88555
;WIPE_END
G1 Z.4 F720
G1 X143.011 Y110.771 F10800
G1 Z.2 F720
G1 E1 F2100
M204 S800
;TYPE:Solid infill
;WIDTH:0.446928
G1 F1200
G1 X142.339 Y110.099 E.03193
G1 X141.743 Y110.074 E.02004
G1 X142.841 Y111.173 E.05219
G1 X142.842 Y111.745 E.01922
G1 X141.118 Y110.021 E.0819
G1 X140.466 Y109.941 E.02207
G1 X142.843 Y112.317 E.1129
G1 X142.844 Y112.89 E.01925
G1 X139.787 Y109.833 E.14523
G1 X139.09 Y109.707 E.02379
G1 X142.845 Y113.462 E.17839
G1 X142.845 Y113.689 E.00763
G1 X142.199 Y113.387 E.02396
G1 X138.355 Y109.543 E.18262
G1 X137.581 Y109.341 E.02687
G1 X141.127 Y112.886 E.16844
G1 X140.054 Y112.386 E.03977
G1 X136.78 Y109.112 E.15554
G1 X136.524 Y109.032 E.00901
G1 X136.398 Y109.301 E.00998
G1 X138.982 Y111.885 E.12276
G1 X137.91 Y111.384 E.03975
G1 X136.217 Y109.691 E.08043
G1 X136.035 Y110.08 E.01443
G1 X137.19 Y111.235 E.05487
M204 S1000
; stop printing object Part3.stl id:2 copy 0
; printing object Part1.stl id:0 copy 0
;WIPE_START
G1 F8640
G1 X136.035 Y110.08 E-.37716
G1 X136.217 Y109.691 E-.09917
G1 X137.821 Y111.295 E-.52367
;WIPE_END
G1 Z.4 F720
G1 X146.144 Y98.614 F10800
G1 Z.2 F720
G1 E1 F2100
M204 S800
;TYPE:Support material interface
;WIDTH:0.35
G1 F1200
G1 X145.79 Y98.614 E.00904
G1 X145.79 Y89.386 E.23563
G1 X146.144 Y89.386 E.00904
M204 S1000
;WIPE_START
G1 F8640
G1 X145.79 Y89.386 E-.08174
G1 X145.79 Y93.363 E-.91826
;WIPE_END
G1 Z.4 F720
G1 X148.4 Y89.022 F10800
G1 Z.2 F720
G1 E1 F2100
M204 S800
;TYPE:Support material
;WIDTH:0.42
G1 F1200
G1 X145.4 Y89.022 E.09406
G1 X145.4 Y98.978 E.31216
G1 X148.4 Y98.978 E.09406
G1 X148.4 Y101.558 E.08089
G1 X101.6 Y101.558 E1.46738
G1 X101.6 Y98.978 E.08089
M73 P4 R24
M73 Q4 S24
G1 X104.6 Y98.978 E.09406
G1 X104.6 Y89.022 E.31216
G1 X101.6 Y89.022 E.09406
G1 X101.6 Y86.442 E.08089
G1 X148.4 Y86.442 E1.46738
G1 X148.4 Y88.966 E.07914
M204 S1000
;WIPE_START
G1 F8640
G1 X148.4 Y86.442 E-.5828
G1 X146.593 Y86.442 E-.4172
;WIPE_END
G1 Z.4 F720
G1 X148.044 Y101.388 F10800
G1 Z.2 F720
G1 E1 F2100
M204 S800
G1 F1200
G1 X148.044 Y99.317 E.06493
G1 X147.625 Y99.317 E.01314
G1 X147.625 Y101.218 E.0596
G1 X147.206 Y101.218 E.01314
G1 X147.206 Y99.317 E.0596
G1 X146.787 Y99.317 E.01314
G1 X146.787 Y101.218 E.0596
G1 X146.368 Y101.218 E.01314
G1 X146.368 Y99.317 E.0596
G1 X145.949 Y99.317 E.01314
G1 X145.949 Y101.218 E.0596
G1 X145.53 Y101.218 E.01314
G1 X145.53 Y99.147 E.06493
M204 S1000
;WIPE_START
G1 F8640
G1 X145.53 Y101.218 E-.4782
G1 X145.949 Y101.218 E-.09675
G1 X145.949 Y99.377 E-.42505
;WIPE_END
G1 Z.4 F720
G1 X148.044 Y88.853 F10800
G1 Z.2 F720
G1 E1 F2100
M204 S800
G1 F1200
G1 X148.044 Y86.782 E.06493
G1 X147.625 Y86.782 E.01314
G1 X147.625 Y88.683 E.0596
G1 X147.206 Y88.683 E.01314
G1 X147.206 Y86.782 E.0596
G1 X146.787 Y86.782 E.01314
G1 X146.787 Y88.683 E.0596
G1 X146.368 Y88.683 E.01314
G1 X146.368 Y86.782 E.0596
G1 X145.949 Y86.782 E.01314
G1 X145.949 Y88.683 E.0596
G1 X145.53 Y88.683 E.01314
G1 X145.53 Y86.782 E.0596
