; generated by PrusaSlicer 2.6.1+win64 on 2023-10-11 at 17:06:25 UTC


;
;
; 

; external perimeters extrusion width = 0.45mm
; perimeters extrusion width = 0.45mm
; infill extrusion width = 0.45mm
; solid infill extrusion width = 0.45mm
; top infill extrusion width = 0.40mm
; support material extrusion width = 0.35mm
; first layer extrusion width = 0.42mm

; external perimeters extrusion width = 0.45mm
; perimeters extrusion width = 0.45mm
; infill extrusion width = 0.45mm
; solid infill extrusion width = 0.45mm
; top infill extrusion width = 0.40mm
; support material extrusion width = 0.35mm
; first layer extrusion width = 0.42mm

; external perimeters extrusion width = 0.45mm
; perimeters extrusion width = 0.45mm
; infill extrusion width = 0.45mm
; solid infill extrusion width = 0.45mm
; top infill extrusion width = 0.40mm
; support material extrusion width = 0.35mm
; first layer extrusion width = 0.42mm

; external perimeters extrusion width = 0.45mm
; perimeters extrusion width = 0.45mm
; infill extrusion width = 0.45mm
; solid infill extrusion width = 0.45mm
; top infill extrusion width = 0.40mm
; support material extrusion width = 0.35mm
; first layer extrusion width = 0.42mm

M73 P0 R36
M73 Q0 S36
M201 X1000 Y1000 Z200 E5000 ; sets maximum accelerations, mm/sec^2
M203 X200 Y200 Z12 E120 ; sets maximum feedrates, mm / sec
M204 S1250 T1250 ; sets acceleration (S) and retract acceleration (R), mm/sec^2
M205 X8.00 Y8.00 Z0.40 E4.50 ; sets the jerk limits, mm/sec
M205 S0 T0 ; sets the minimum extruding and travel feed rate, mm/sec
;TYPE:Custom
M862.3 P "MK3S" ; printer model check
M862.1 P0.4 ; nozzle diameter check
M115 U3.13.0 ; tell printer latest fw version
G90 ; use absolute coordinates
M83 ; extruder relative mode
M104 S230 ; set extruder temp
M140 S85 ; set bed temp
M190 S85 ; wait for bed temp
M109 S230 ; wait for extruder temp
G28 W ; home all without mesh bed level
G80 ; mesh bed leveling

G1 Z0.2 F720
G1 Y-3 F1000 ; go outside print area
G92 E0
G1 X60 E9 F1000 ; intro line
G1 X100 E12.5 F1000 ; intro line

G92 E0
M221 S95

; Don't change E values below. Excessive value can damage the printer.
M907 E430 ; set extruder motor current
G21 ; set units to millimeters
G90 ; use absolute coordinates
M83 ; use relative distances for extrusion
M900 K0.08 ; Filament gcode LA 1.5
M900 K45 ; Filament gcode LA 1.0
M107
;LAYER_CHANGE
;Z:0.2
;HEIGHT:0.2
;BEFORE_LAYER_CHANGE
G92 E0.0
;0.2


G1 E-1 F2100
G1 Z.2 F720
;AFTER_LAYER_CHANGE
;0.2
G1 Z.4
G1 X89.909 Y89.909 F10800
G1 Z.2 F720
G1 E1 F2100
M204 S800
;TYPE:Skirt/Brim
;WIDTH:0.42
G1 F1200
G1 X93.671 Y86.147 E.16681
G1 X95.352 Y85.451 E.05705
G1 X127.156 Y85.484 E.99719
G1 X158.413 Y90.735 E.99377
G1 X159.637 Y91.337 E.04277
G1 X160.19 Y92.11 E.0298
G1 X163.133 Y98.702 E.22635
G1 X163.331 Y99.468 E.02481
G1 X164.62 Y114.653 E.47783
G1 X164.62 Y129.769 E.47395
G1 X164.228 Y131.076 E.04278
G1 X163.182 Y131.952 E.04278
G1 X162.243 Y132.146 E.03006
G1 X87.757 Y132.146 E2.33546
G1 X86.45 Y131.754 E.04278
G1 X85.574 Y130.708 E.04278
G1 X85.38 Y129.769 E.03006
G1 X85.38 Y114.653 E.47395
G1 X88.382 Y92.126 E.71256
G1 X89.057 Y90.762 E.04772
G1 X89.867 Y89.952 E.03592
M204 S1000
; printing object Part3.stl id:2 copy 0
;WIPE_START
G1 F8640
G1 X92.929 Y86.889 E-1
;WIPE_END
G1 Z.4 F720
G1 X143.813 Y95.749 F10800
G1 Z.2 F720
G1 E1 F2100
M204 S800
;TYPE:Support material
G1 F1200
G1 X145.959 Y95.749 E.06729
G1 X145.111 Y94.901 E.0376
G1 X145.111 Y94.877 E.00075
G1 X151.623 Y101.401 E.28902
G1 X151.799 Y101.474 E.00597
G1 X153.042 Y101.474 E.03897
G1 X153.042 Y102.671 E.03753
G1 X158.383 Y102.671 E.16746
G1 X158.383 Y99.671 E.09406
G1 X160.963 Y99.671 E.08089
G1 X160.963 Y112.172 E.39196
G1 X148.155 Y112.172 E.40159
G1 X148.155 Y105.251 E.217
M73 P1 R36
M73 Q1 S36
G1 X145.848 Y105.251 E.07233
G1 X145.848 Y102.943 E.07237
G1 X143.541 Y102.943 E.07233
G1 X143.541 Y100.636 E.07233
G1 X141.233 Y100.636 E.07237
G1 X141.233 Y92.749 E.24729
G1 X143.813 Y92.749 E.08089
G1 X143.813 Y95.693 E.09231
M204 S1000
G1 X153.042 Y109.592 F10800
M204 S800
G1 F1200
G1 X153.042 Y106.558 E.09513
G1 X156.076 Y106.558 E.09513
G1 X156.076 Y109.592 E.09513
G1 X153.098 Y109.592 E.09337
M204 S1000
G1 X160.316 Y112.002 F10800
M204 S800
G1 F1200
G1 X160.316 Y100.01 E.376
G1 X159.897 Y100.01 E.01314
G1 X159.897 Y111.832 E.37067
G1 X159.478 Y111.832 E.01314
G1 X159.478 Y100.01 E.37067
G1 X159.059 Y100.01 E.01314
G1 X159.059 Y111.832 E.37067
G1 X158.64 Y111.832 E.01314
G1 X158.64 Y103.01 E.27661
G1 X158.221 Y103.01 E.01314
G1 X158.221 Y111.832 E.27661
G1 X157.802 Y111.832 E.01314
G1 X157.802 Y103.01 E.27661
G1 X157.383 Y103.01 E.01314
G1 X157.383 Y111.832 E.27661
G1 X156.964 Y111.832 E.01314
G1 X156.964 Y103.01 E.27661
G1 X156.545 Y103.01 E.01314
G1 X156.545 Y111.832 E.27661
G1 X156.126 Y111.832 E.01314
G1 X156.126 Y109.931 E.0596
G1 X155.707 Y109.931 E.01314
G1 X155.707 Y111.832 E.0596
G1 X155.288 Y111.832 E.01314
G1 X155.288 Y109.931 E.0596
G1 X154.869 Y109.931 E.01314
G1 X154.869 Y111.832 E.0596
G1 X154.45 Y111.832 E.01314
G1 X154.45 Y109.931 E.0596
G1 X154.031 Y109.931 E.01314
G1 X154.031 Y111.832 E.0596
G1 X153.612 Y111.832 E.01314
G1 X153.612 Y109.931 E.0596
G1 X153.193 Y109.931 E.01314
G1 X153.193 Y111.832 E.0596
G1 X152.774 Y111.832 E.01314
G1 X152.774 Y103.01 E.27661
G1 X153.193 Y103.01 E.01314
G1 X153.193 Y106.218 E.10058
G1 X153.612 Y106.218 E.01314
G1 X153.612 Y103.01 E.10058
G1 X154.031 Y103.01 E.01314
G1 X154.031 Y106.218 E.10058
G1 X154.45 Y106.218 E.01314
G1 X154.45 Y103.01 E.10058
G1 X154.869 Y103.01 E.01314
G1 X154.869 Y106.218 E.10058
G1 X155.288 Y106.218 E.01314
G1 X155.288 Y103.01 E.10058
G1 X155.707 Y103.01 E.01314
G1 X155.707 Y106.218 E.10058
G1 X156.126 Y106.218 E.01314
G1 X156.126 Y102.84 E.10591
M204 S1000
;WIPE_START
G1 F8640
G1 X156.126 Y106.218 E-.77999
G1 X155.707 Y106.218 E-.09675
G1 X155.707 Y105.684 E-.12326
;WIPE_END
G1 Z.4 F720
G1 X152.355 Y112.002 F10800
G1 Z.2 F720
G1 E1 F2100
M204 S800
G1 F1200
G1 X152.355 Y101.813 E.31947
G1 X151.936 Y101.813 E.01314
G1 X151.936 Y111.832 E.31414
G1 X151.517 Y111.832 E.01314
G1 X151.517 Y101.724 E.31693
G1 X151.43 Y101.688 E.00295
G1 X151.098 Y101.356 E.01472
G1 X151.098 Y111.832 E.32847
G1 X150.679 Y111.832 E.01314
G1 X150.679 Y100.937 E.34161
G1 X150.26 Y100.516 E.01862
G1 X150.26 Y111.832 E.35481
G1 X149.841 Y111.832 E.01314
G1 X149.841 Y100.095 E.36801
G1 X149.422 Y99.674 E.01862
G1 X149.422 Y111.832 E.38121
G1 X149.003 Y111.832 E.01314
G1 X149.003 Y99.253 E.39441
G1 X148.584 Y98.832 E.01862
G1 X148.584 Y111.832 E.40761
G1 X148.494 Y111.832 E.00282
M73 P1 R35
G1 X148.494 Y104.911 E.217
G1 X148.165 Y104.911 E.01032
G1 X148.165 Y98.412 E.20377
G1 X147.746 Y97.993 E.01858
G1 X147.746 Y104.911 E.21691
G1 X147.327 Y104.911 E.01314
G1 X147.327 Y97.574 E.23005
G1 X146.908 Y97.155 E.01858
G1 X146.908 Y104.911 E.24318
G1 X146.489 Y104.911 E.01314
G1 X146.489 Y96.736 E.25632
G1 X146.07 Y96.317 E.01858
G1 X146.07 Y102.604 E.19712
G1 X145.651 Y102.604 E.01314
G1 X145.651 Y96.089 E.20427
G1 X145.232 Y96.089 E.01314
G1 X145.232 Y102.604 E.20427
G1 X144.814 Y102.604 E.01311
G1 X144.814 Y96.089 E.20427
G1 X144.395 Y96.089 E.01314
G1 X144.395 Y102.604 E.20427
G1 X143.976 Y102.604 E.01314
M73 P2 R35
M73 Q2 S36
G1 X143.976 Y96.089 E.20427
G1 X143.557 Y96.089 E.01314
G1 X143.557 Y100.297 E.13194
G1 X143.138 Y100.297 E.01314
G1 X143.138 Y93.089 E.226
G1 X142.719 Y93.089 E.01314
G1 X142.719 Y100.297 E.226
G1 X142.3 Y100.297 E.01314
G1 X142.3 Y93.089 E.226
G1 X141.881 Y93.089 E.01314
G1 X141.881 Y100.467 E.23133
M204 S1000
;WIPE_START
G1 F8640
G1 X141.881 Y96.136 E-1
;WIPE_END
G1 Z.4 F720
G1 X144.353 Y95.386 F10800
G1 Z.2 F720
G1 E1 F2100
M204 S800
;TYPE:Support material interface
;WIDTH:0.35
G1 F1200
G1 X144.177 Y95.386 E.00449
G1 X144.177 Y93.079 E.05891
G1 X144.506 Y93.079 E.0084
G1 X144.506 Y95.386 E.05891
G1 X145.013 Y95.386 E.01295
G1 X145.013 Y95.317 E.00176
G1 X144.747 Y95.051 E.00961
G1 X144.747 Y94.912 E.00355
M204 S1000
G1 X144.752 Y94.696 F10800
M204 S800
G1 F1200
G1 X145.013 Y94.434 E.00944
G1 X145.013 Y93.079 E.0346
G1 X145.52 Y93.079 E.01295
G1 X145.52 Y93.927 E.02165
G1 X146.027 Y93.42 E.01831
G1 X146.027 Y93.079 E.00871
G1 X146.369 Y93.079 E.00873
G1 X146.136 Y93.311 E.0084
M204 S1000
;WIPE_START
G1 F8640
G1 X146.369 Y93.079 E-.07592
G1 X146.027 Y93.079 E-.07897
G1 X146.027 Y93.42 E-.07874
G1 X145.52 Y93.927 E-.16556
G1 X145.52 Y93.079 E-.19581
G1 X145.013 Y93.079 E-.11707
G1 X145.013 Y94.326 E-.28793
;WIPE_END
G1 Z.4 F720
G1 X156.015 Y94.562 F10800
G1 Z.2 F720
G1 E1 F2100
M204 S800
G1 F1200
G1 X155.712 Y94.546 E.00775
G1 X155.712 Y93.079 E.03746
G1 X156.169 Y93.079 E.01167
G1 X156.169 Y94.563 E.03789
G1 X156.427 Y94.811 E.00914
G1 X156.425 Y101.17 E.16237
G1 X156.169 Y101.417 E.00908
G1 X156.169 Y102.307 E.02273
G1 X156.676 Y102.307 E.01295
G1 X156.676 Y93.079 E.23563
G1 X157.183 Y93.079 E.01295
G1 X157.183 Y102.307 E.23563
G1 X157.69 Y102.307 E.01295
G1 X157.69 Y93.079 E.23563
G1 X158.019 Y93.079 E.0084
G1 X158.019 Y102.307 E.23563
G1 X157.844 Y102.307 E.00447
M204 S1000
;WIPE_START
G1 F8640
G1 X158.019 Y102.307 E-.04041
G1 X158.019 Y98.151 E-.95959
;WIPE_END
G1 Z.4 F720
G1 X156.015 Y101.417 F10800
G1 Z.2 F720
G1 E1 F2100
M204 S800
G1 F1200
G1 X155.662 Y101.417 E.00901
G1 X155.662 Y102.307 E.02273
G1 X155.155 Y102.307 E.01295
G1 X155.155 Y101.417 E.02273
G1 X154.648 Y101.417 E.01295
G1 X154.648 Y102.307 E.02273
G1 X154.141 Y102.307 E.01295
G1 X154.141 Y101.417 E.02273
G1 X153.634 Y101.417 E.01295
G1 X153.634 Y102.307 E.02273
G1 X153.405 Y102.307 E.00585
G1 X153.405 Y101.417 E.02273
G1 X153.48 Y101.417 E.00192
M204 S1000
;WIPE_START
G1 F8640
G1 X153.405 Y101.417 E-.01732
G1 X153.405 Y102.307 E-.2055
G1 X153.634 Y102.307 E-.05288
G1 X153.634 Y101.417 E-.2055
G1 X154.141 Y101.417 E-.11707
G1 X154.141 Y102.307 E-.2055
G1 X154.648 Y102.307 E-.11707
G1 X154.648 Y101.964 E-.07916
;WIPE_END
G1 Z.4 F720
G1 X156.061 Y101.019 F10800
G1 Z.2 F720
G1 E1 F2100
M204 S800
;TYPE:Support material
;WIDTH:0.42
G1 F1200
G1 X156.026 Y101.054 E.00155
G1 X155.931 Y101.054 E.00298
G1 X155.933 Y99.671 E.04336
G1 X156.063 Y99.671 E.00408
G1 X156.061 Y100.962 E.04048
M204 S1000
;WIPE_START
G1 F8640
G1 X156.063 Y99.671 E-.2981
G1 X155.933 Y99.671 E-.03002
G1 X155.931 Y101.054 E-.31934
G1 X156.026 Y101.054 E-.02194
G1 X156.061 Y101.019 E-.01143
;WIPE_END
G1 E-.31917 F2100
G1 Z.4 F720
G1 X155.662 Y106.921 F10800
G1 Z.2 F720
G1 E1 F2100
M204 S800
;TYPE:Support material interface
;WIDTH:0.35
G1 F1200
G1 X155.662 Y109.228 E.05891
G1 X155.155 Y109.228 E.01295
G1 X155.155 Y106.921 E.05891
G1 X154.648 Y106.921 E.01295
G1 X154.648 Y109.228 E.05891
G1 X154.141 Y109.228 E.01295
G1 X154.141 Y106.921 E.05891
G1 X153.634 Y106.921 E.01295
G1 X153.634 Y109.228 E.05891
G1 X153.405 Y109.228 E.00585
G1 X153.405 Y108.797 E.01101
M204 S1000
;WIPE_START
G1 F8640
G1 X153.405 Y109.228 E-.09952
G1 X153.634 Y109.228 E-.05288
G1 X153.634 Y106.921 E-.53269
G1 X154.141 Y106.921 E-.11707
G1 X154.141 Y107.778 E-.19784
;WIPE_END
G1 Z.4 F720
G1 X154.665 Y100.207 F10800
G1 Z.2 F720
G1 E1 F2100
M204 S800
;TYPE:Perimeter
;WIDTH:0.419999
G1 F1200
G1 X152.221 Y100.207 E.07663
G1 X146.592 Y94.567 E.24984
G1 X148.283 Y92.877 E.07496
G1 X149.135 Y93.451 E.03221
G1 X149.928 Y93.938 E.02918
G1 X150.852 Y94.432 E.03285
G1 X151.612 Y94.781 E.02622
G1 X152.474 Y95.113 E.02896
G1 X153.335 Y95.378 E.02825
G1 X154.163 Y95.569 E.02664
G1 X154.672 Y95.645 E.01614
G1 X154.666 Y100.147 E.14116
M204 S1000
G1 X155.042 Y100.584 F10800
M204 S800
;TYPE:External perimeter
G1 F1200
G1 X152.064 Y100.584 E.09337
G1 X146.059 Y94.567 E.26654
G1 X148.238 Y92.388 E.09662
G1 X149.181 Y93.036 E.03587
M73 Q2 S35
G1 X150.106 Y93.605 E.03405
G1 X151.03 Y94.1 E.03287
G1 X151.748 Y94.429 E.02476
G1 X152.585 Y94.753 E.02814
G1 X153.42 Y95.01 E.02739
G1 X154.263 Y95.204 E.02712
G1 X155.049 Y95.319 E.02491
G1 X155.042 Y100.524 E.1632
M204 S1000
G1 X154.686 Y100.401 F10800
;WIPE_START
G1 F8640
G1 X152.064 Y100.584 E-.68777
G1 X151.109 Y99.627 E-.31223
;WIPE_END
G1 Z.4 F720
G1 X154.501 Y96.57 F10800
G1 Z.2 F720
G1 E1 F2100
M204 S800
;TYPE:Solid infill
;WIDTH:0.426966
G1 F1200
G1 X153.752 Y95.821 E.03383
G1 X153.026 Y95.638 E.02391
G1 X154.33 Y96.943 E.05891
G1 X154.33 Y97.486 E.01734
G1 X152.227 Y95.383 E.09497
G1 X151.322 Y95.021 E.03113
G1 X154.329 Y98.028 E.1358
G1 X154.328 Y98.57 E.01731
G1 X150.257 Y94.499 E.18385
G1 X149.764 Y94.235 E.01786
G1 X148.948 Y93.733 E.03059
G1 X154.328 Y99.113 E.24297
G1 X154.327 Y99.655 E.01731
G1 X148.155 Y93.484 E.27871
G1 X147.884 Y93.755 E.01224
G1 X153.996 Y99.867 E.27602
G1 X153.453 Y99.867 E.01734
G1 X147.612 Y94.027 E.26376
G1 X147.341 Y94.299 E.01226
G1 X152.91 Y99.867 E.25148
G1 X152.366 Y99.867 E.01737
G1 X146.949 Y94.45 E.24464
M204 S1000
; stop printing object Part3.stl id:2 copy 0
; printing object Part1.stl id:0 copy 0
;WIPE_START
G1 F8640
G1 X150.011 Y97.512 E-1
;WIPE_END
G1 Z.4 F720
G1 X154.918 Y117.597 F10800
G1 Z.2 F720
G1 E1 F2100
M204 S800
;TYPE:Support material interface
;WIDTH:0.35
G1 F1200
G1 X154.918 Y119.746 E.05487
G1 X154.411 Y119.746 E.01295
G1 X154.411 Y117.597 E.05487
G1 X153.903 Y117.597 E.01297
G1 X153.903 Y119.746 E.05487
G1 X153.82 Y119.746 E.00212
G1 X153.642 Y119.924 E.00643
M204 S1000
;WIPE_START
G1 F8640
G1 X153.82 Y119.746 E-.05813
G1 X153.903 Y119.746 E-.01916
G1 X153.903 Y117.597 E-.49621
G1 X154.411 Y117.597 E-.1173
G1 X154.411 Y118.936 E-.3092
;WIPE_END
G1 Z.4 F720
G1 X154.918 Y124.676 F10800
G1 Z.2 F720
G1 E1 F2100
M204 S800
G1 F1200
G1 X154.918 Y126.825 E.05487
G1 X154.411 Y126.825 E.01295
G1 X154.411 Y124.676 E.05487
G1 X153.903 Y124.676 E.01297
G1 X153.903 Y126.825 E.05487
G1 X153.396 Y126.825 E.01295
G1 X153.396 Y117.597 E.23563
G1 X152.889 Y117.597 E.01295
G1 X152.889 Y126.825 E.23563
G1 X152.685 Y126.825 E.00521
G1 X152.685 Y126.439 E.00986
M204 S1000
;WIPE_START
G1 F8640
G1 X152.685 Y126.825 E-.08913
G1 X152.889 Y126.825 E-.0471
G1 X152.889 Y123.084 E-.86377
;WIPE_END
G1 Z.4 F720
G1 X159.835 Y117.597 F10800
G1 Z.2 F720
G1 E1 F2100
M204 S800
G1 F1200
G1 X159.606 Y117.597 E.00585
G1 X159.606 Y119.746 E.05487
G1 X159.988 Y119.746 E.00975
G1 X159.988 Y117.597 E.05487
G1 X160.496 Y117.597 E.01297
G1 X160.496 Y119.746 E.05487
G1 X161.003 Y119.746 E.01295
G1 X161.003 Y117.597 E.05487
G1 X161.51 Y117.597 E.01295
G1 X161.51 Y126.825 E.23563
G1 X161.003 Y126.825 E.01295
G1 X161.003 Y124.676 E.05487
G1 X160.496 Y124.676 E.01295
G1 X160.496 Y126.825 E.05487
G1 X159.988 Y126.825 E.01297
G1 X159.988 Y124.676 E.05487
G1 X159.606 Y124.676 E.00975
G1 X159.606 Y126.825 E.05487
G1 X159.835 Y126.825 E.00585
M204 S1000
;WIPE_START
M73 Q3 S35
G1 F8640
M73 P3 R35
G1 X159.606 Y126.825 E-.05288
G1 X159.606 Y124.676 E-.49621
G1 X159.988 Y124.676 E-.0882
G1 X159.988 Y126.247 E-.36271
;WIPE_END
G1 Z.4 F720
G1 X161.663 Y126.825 F10800
G1 Z.2 F720
G1 E1 F2100
M204 S800
G1 F1200
G1 X161.913 Y126.825 E.00638
G1 X161.913 Y117.597 E.23563
G1 X161.663 Y117.597 E.00638
M204 S1000
G1 X162.243 Y117.233 F10800
M204 S800
;TYPE:Support material
;WIDTH:0.42
G1 F1200
G1 X159.243 Y117.233 E.09406
G1 X159.243 Y120.109 E.09017
G1 X161.02 Y120.109 E.05572
G1 X161.049 Y120.138 E.00129
G1 X153.942 Y120.138 E.22283
G1 X153.971 Y120.109 E.00129
G1 X155.356 Y120.109 E.04343
G1 X155.356 Y117.233 E.09017
G1 X152.321 Y117.233 E.09516
G1 X152.321 Y127.189 E.31216
G1 X155.356 Y127.189 E.09516
G1 X155.356 Y124.313 E.09017
G1 X153.971 Y124.313 E.04343
G1 X153.942 Y124.284 E.00129
G1 X161.049 Y124.284 E.22283
G1 X161.02 Y124.313 E.00129
G1 X159.243 Y124.313 E.05572
G1 X159.243 Y127.189 E.09017
G1 X162.243 Y127.189 E.09406
G1 X162.243 Y129.769 E.08089
G1 X87.757 Y129.769 E2.33546
G1 X87.757 Y127.189 E.08089
G1 X90.757 Y127.189 E.09406
G1 X90.757 Y124.313 E.09017
G1 X88.98 Y124.313 E.05572
G1 X88.951 Y124.284 E.00129
G1 X96.058 Y124.284 E.22283
G1 X96.029 Y124.313 E.00129
G1 X94.644 Y124.313 E.04343
G1 X94.644 Y127.189 E.09017
G1 X97.679 Y127.189 E.09516
G1 X97.679 Y117.233 E.31216
G1 X94.644 Y117.233 E.09516
G1 X94.644 Y120.109 E.09017
G1 X96.029 Y120.109 E.04343
G1 X96.058 Y120.138 E.00129
