; generated by PrusaSlicer 2.6.1+win64 on 2023-11-27 at 22:26:15 UTC


;
;
; 

; external perimeters extrusion width = 0.45mm
; perimeters extrusion width = 0.45mm
; infill extrusion width = 0.45mm
; solid infill extrusion width = 0.45mm
; top infill extrusion width = 0.40mm
; first layer extrusion width = 0.42mm

M73 P0 R53
M73 Q0 S53
M201 X1000 Y1000 Z200 E5000 ; sets maximum accelerations, mm/sec^2
M203 X200 Y200 Z12 E120 ; sets maximum feedrates, mm / sec
M204 S1250 T1250 ; sets acceleration (S) and retract acceleration (R), mm/sec^2
M205 X8.00 Y8.00 Z0.40 E4.50 ; sets the jerk limits, mm/sec
M205 S0 T0 ; sets the minimum extruding and travel feed rate, mm/sec
;TYPE:Custom
M862.3 P "MK3S" ; printer model check
M862.1 P0.4 ; nozzle diameter check
M115 U3.13.0 ; tell printer latest fw version
G90 ; use absolute coordinates
M83 ; extruder relative mode
M104 S230 ; set extruder temp
M140 S85 ; set bed temp
M190 S85 ; wait for bed temp
M109 S230 ; wait for extruder temp
G28 W ; home all without mesh bed level
G80 ; mesh bed leveling

G1 Z0.2 F720
G1 Y-3 F1000 ; go outside print area
G92 E0
G1 X60 E9 F1000 ; intro line
G1 X100 E12.5 F1000 ; intro line

G92 E0
M221 S95

; Don't change E values below. Excessive value can damage the printer.
M907 E430 ; set extruder motor current
G21 ; set units to millimeters
G90 ; use absolute coordinates
M83 ; use relative distances for extrusion
M900 K0.08 ; Filament gcode LA 1.5
M900 K45 ; Filament gcode LA 1.0
M107
;LAYER_CHANGE
;Z:0.2
;HEIGHT:0.2
;BEFORE_LAYER_CHANGE
G92 E0.0
;0.2


G1 E-1 F2100
G1 Z.2 F720
;AFTER_LAYER_CHANGE
;0.2
G1 Z.4
G1 X109.277 Y91.151 F10800
G1 Z.2 F720
G1 E1 F2100
M204 S800
;TYPE:Skirt/Brim
;WIDTH:0.42
G1 F1200
G1 X110.346 Y90.402 E.04093
G1 X111.532 Y89.98 E.03947
G1 X121.41 Y87.658 E.31816
G1 X123.503 Y87.315 E.0665
G1 X125.623 Y87.256 E.0665
G1 X127.549 Y87.451 E.0607
G1 X128.667 Y87.675 E.03575
G1 X138.468 Y89.98 E.31569
G1 X139.654 Y90.402 E.03947
G1 X140.356 Y90.842 E.02598
G1 X141.279 Y91.765 E.04093
G1 X142.608 Y93.985 E.08113
G1 X143.12 Y95.302 E.0443
G1 X143.234 Y96.603 E.04095
G1 X143.007 Y97.841 E.03946
G1 X139.802 Y108.388 E.34563
G1 X138.943 Y110.327 E.06649
G1 X137.724 Y112.284 E.07229
G1 X136.435 Y113.833 E.06318
G1 X129.539 Y121.168 E.31566
G1 X128.865 Y121.784 E.02863
G1 X128.149 Y122.231 E.02647
G1 X127.06 Y122.626 E.03632
G1 X126 Y122.75 E.03346
G1 X123.76 Y122.74 E.07023
G1 X122.94 Y122.626 E.02596
G1 X122.152 Y122.372 E.02596
G1 X121.42 Y121.984 E.02598
G1 X120.767 Y121.476 E.02594
G1 X113.511 Y113.775 E.33176
G1 X112.812 Y112.977 E.03326
G1 X111.68 Y111.407 E.06069
G1 X110.671 Y109.541 E.06651
G1 X109.922 Y107.557 E.06649
G1 X106.97 Y97.76 E.32082
G1 X106.796 Y96.95 E.02598
G1 X106.766 Y96.123 E.02595
G1 X106.88 Y95.303 E.02596
G1 X107.134 Y94.515 E.02596
G1 X108.487 Y92.102 E.08674
G1 X109.238 Y91.197 E.03687
M204 S1000
G1 X109.529 Y91.435 F10800
M204 S800
G1 F1200
G1 X110.146 Y90.951 E.02459
G1 X110.821 Y90.597 E.0239
G1 X111.618 Y90.347 E.02619
G1 X122.344 Y87.852 E.34528
G1 X123.529 Y87.691 E.0375
G1 X125.598 Y87.632 E.0649
G1 X127.498 Y87.825 E.05988
G1 X128.581 Y88.042 E.03463
G1 X138.382 Y90.347 E.31569
G1 X139.495 Y90.744 E.03705
G1 X140.139 Y91.151 E.02389
G1 X140.97 Y91.981 E.03683
G1 X142.281 Y94.174 E.08011
G1 X142.756 Y95.4 E.04122
G1 X142.858 Y96.57 E.03682
G1 X142.646 Y97.732 E.03704
G1 X139.444 Y108.269 E.3453
G1 X138.605 Y110.161 E.06489
G1 X137.425 Y112.053 E.06991
G1 X136.16 Y113.575 E.06205
G1 X129.264 Y120.91 E.31566
G1 X128.649 Y121.475 E.02619
G1 X127.989 Y121.89 E.02444
G1 X126.963 Y122.262 E.03422
G1 X126 Y122.373 E.03039
G1 X123.793 Y122.364 E.0692
G1 X123.037 Y122.262 E.02392
G1 X122.311 Y122.03 E.0239
G1 X121.637 Y121.675 E.02388
G1 X121.034 Y121.209 E.02389
G1 X113.794 Y113.524 E.33105
G1 X113.11 Y112.746 E.03248
G1 X111.993 Y111.196 E.0599
G1 X111.009 Y109.375 E.0649
G1 X110.279 Y107.438 E.0649
G1 X107.334 Y97.662 E.32013
G1 X107.172 Y96.917 E.0239
G1 X107.142 Y96.155 E.02391
G1 X107.244 Y95.4 E.02389
G1 X107.476 Y94.674 E.0239
G1 X108.766 Y92.364 E.08296
G1 X109.49 Y91.482 E.03578
M204 S1000
; printing object Part1.stl id:0 copy 0
;WIPE_START
G1 F8640
G1 X110.146 Y90.951 E-.19488
G1 X110.821 Y90.597 E-.17599
G1 X111.618 Y90.347 E-.19287
G1 X113.458 Y89.919 E-.43626
;WIPE_END
G1 Z.4 F720
G1 X137.138 Y99.28 F10800
G1 Z.2 F720
G1 E1 F2100
M204 S800
;TYPE:Perimeter
;WIDTH:0.419999
G1 F1200
G1 X134.293 Y94.353 E.17839
G1 X134.687 Y94.381 E.01238
G1 X135.273 Y94.332 E.01844
G1 X135.774 Y94.182 E.0164
G1 X137.077 Y93.494 E.0462
G1 X137.49 Y93.421 E.01315
G1 X137.904 Y93.494 E.01318
G1 X138.268 Y93.704 E.01318
G1 X138.558 Y94.054 E.01425
G1 X139.627 Y95.949 E.06822
G1 X139.691 Y96.256 E.00983
G1 X139.682 Y96.573 E.00994
G1 X139.538 Y96.968 E.01318
G1 X139.281 Y97.277 E.0126
G1 X138.52 Y97.74 E.02793
G1 X137.992 Y98.092 E.0199
G1 X137.641 Y98.432 E.01532
G1 X137.354 Y98.829 E.01536
G1 X137.164 Y99.226 E.0138
M204 S1000
;WIPE_START
G1 F8640
G1 X134.966 Y95.495 E-1
;WIPE_END
G1 Z.4 F720
G1 X116.837 Y93.892 F10800
G1 Z.2 F720
G1 E1 F2100
M204 S800
;WIDTH:0.452149
G1 F1200
G1 X117.188 Y93.618 E.01515
;WIDTH:0.447818
G1 X117.899 Y93.081 E.03
;WIDTH:0.441579
G1 X118.645 Y92.588 E.02964
;WIDTH:0.441128
G1 X119.374 Y92.176 E.02773
;WIDTH:0.447767
G1 X119.834 Y91.946 E.01731
G1 X120.589 Y91.624 E.02763
G1 X121.365 Y91.352 E.02768
;WIDTH:0.447535
G1 X122.157 Y91.134 E.02764
;WIDTH:0.447081
G1 X122.962 Y90.969 E.02762
;WIDTH:0.446408
G1 X123.776 Y90.859 E.02756
;WIDTH:0.445514
G1 X124.596 Y90.803 E.02751
;WIDTH:0.4444
G1 X125.482 Y90.807 E.02958
;WIDTH:0.443261
G1 X126.374 Y90.877 E.02978
;WIDTH:0.442344
G1 X127.258 Y91.011 E.0297
;WIDTH:0.441647
G1 X128.13 Y91.209 E.02965
;WIDTH:0.441168
G1 X128.931 Y91.452 E.02772
;WIDTH:0.44778
G1 X129.423 Y91.628 E.01759
G1 X130.179 Y91.952 E.02769
G1 X130.91 Y92.326 E.02764
;WIDTH:0.447573
G1 X131.615 Y92.747 E.02763
;WIDTH:0.447148
G1 X132.291 Y93.216 E.02765
;WIDTH:0.446499
G1 X133.164 Y93.895 E.03711
;WIDTH:0.445575
G1 X132.769 Y94.123 E.01527
G1 X132.562 Y93.941 E.00923
;WIDTH:0.442248
G1 X131.877 Y93.411 E.02876
;WIDTH:0.441578
G1 X131.155 Y92.932 E.02872
;WIDTH:0.447573
G1 X130.707 Y92.675 E.01738
;WIDTH:0.447767
G1 X130 Y92.315 E.02671
G1 X129.271 Y92.003 E.02669
G1 X128.523 Y91.741 E.02668
;WIDTH:0.447533
G1 X127.758 Y91.529 E.02671
;WIDTH:0.44708
G1 X126.982 Y91.368 E.02663
;WIDTH:0.446408
G1 X126.196 Y91.26 E.02662
;WIDTH:0.445513
G1 X125.404 Y91.205 E.02658
;WIDTH:0.44439
G1 X124.546 Y91.207 E.02864
;WIDTH:0.443262
G1 X123.682 Y91.272 E.02884
;WIDTH:0.442344
M73 P0 R52
G1 X122.826 Y91.401 E.02875
;WIDTH:0.441648
G1 X121.981 Y91.592 E.02872
;WIDTH:0.447535
G1 X121.477 Y91.741 E.01768
;WIDTH:0.447781
G1 X120.729 Y92.003 E.02668
G1 X120 Y92.315 E.02669
G1 X119.293 Y92.675 E.02671
;WIDTH:0.447575
G1 X118.612 Y93.082 E.02669
;WIDTH:0.447147
G1 X117.954 Y93.537 E.02689
;WIDTH:0.452149
G1 X117.23 Y94.119 E.03161
G1 X116.889 Y93.922 E.0134
M204 S1000
;WIPE_START
G1 F8640
G1 X117.188 Y93.618 E-.09846
G1 X117.899 Y93.081 E-.20574
G1 X118.645 Y92.588 E-.20647
G1 X119.374 Y92.176 E-.19335
G1 X119.834 Y91.946 E-.11875
G1 X120.54 Y91.645 E-.17723
;WIPE_END
G1 Z.4 F720
G1 X112.868 Y99.27 F10800
G1 Z.2 F720
G1 E1 F2100
M204 S800
;WIDTH:0.419999
G1 F1200
G1 X112.695 Y98.915 E.01238
G1 X112.359 Y98.432 E.01845
G1 X111.979 Y98.073 E.01639
G1 X110.732 Y97.289 E.04618
G1 X110.462 Y96.968 E.01315
G1 X110.318 Y96.573 E.01318
G1 X110.318 Y96.152 E.0132
G1 X110.476 Y95.726 E.01425
G1 X111.442 Y94.054 E.06054
G1 X111.732 Y93.704 E.01425
G1 X112.096 Y93.494 E.01318
G1 X112.51 Y93.421 E.01318
G1 X112.906 Y93.489 E.0126
G1 X113.688 Y93.916 E.02794
G1 X114.257 Y94.197 E.0199
G1 X114.727 Y94.332 E.01533
G1 X115.214 Y94.381 E.01535
G1 X115.712 Y94.343 E.01566
G1 X112.898 Y99.218 E.17649
M204 S1000
;WIPE_START
G1 F8640
G1 X112.695 Y98.915 E-.08421
G1 X112.359 Y98.432 E-.13586
G1 X111.979 Y98.073 E-.12071
G1 X110.732 Y97.289 E-.34011
G1 X110.462 Y96.968 E-.09685
G1 X110.318 Y96.573 E-.09708
G1 X110.318 Y96.152 E-.09721
G1 X110.36 Y96.038 E-.02797
;WIPE_END
G1 Z.4 F720
G1 X113.036 Y100.477 F10800
G1 Z.2 F720
G1 E1 F2100
M204 S800
;WIDTH:0.445575
G1 F1200
G1 X113.431 Y100.705 E.01527
G1 X113.376 Y100.975 E.00923
;WIDTH:0.442249
G1 X113.26 Y101.834 E.02878
;WIDTH:0.441578
G1 X113.206 Y102.698 E.0287
;WIDTH:0.447576
G1 X113.208 Y103.215 E.0174
;WIDTH:0.447767
G1 X113.25 Y104.007 E.0267
G1 X113.344 Y104.794 E.02668
G1 X113.491 Y105.574 E.02672
;WIDTH:0.447533
G1 X113.69 Y106.341 E.02666
;WIDTH:0.447081
G1 X113.939 Y107.094 E.02665
;WIDTH:0.446408
G1 X114.238 Y107.829 E.02662
;WIDTH:0.445512
G1 X114.586 Y108.543 E.02659
;WIDTH:0.444399
G1 X115.017 Y109.285 E.02865
;WIDTH:0.443262
G1 X115.505 Y110 E.02882
;WIDTH:0.442345
G1 X116.045 Y110.677 E.02876
;WIDTH:0.441648
G1 X116.633 Y111.313 E.02872
;WIDTH:0.447533
G1 X117.014 Y111.675 E.01768
;WIDTH:0.447782
G1 X117.615 Y112.192 E.02669
G1 X118.25 Y112.667 E.0267
G1 X118.915 Y113.1 E.02671
;WIDTH:0.447574
G1 X119.608 Y113.486 E.02669
;WIDTH:0.447148
G1 X120.33 Y113.828 E.02685
;WIDTH:0.452148
G1 X121.197 Y114.164 E.03164
G1 X121.197 Y114.618 E.01545
G1 X120.784 Y114.451 E.01516
;WIDTH:0.447818
G1 X119.963 Y114.104 E.03001
;WIDTH:0.441578
G1 X119.164 Y113.705 E.0296
;WIDTH:0.441128
G1 X118.443 Y113.279 E.02773
;WIDTH:0.447768
G1 X118.013 Y112.996 E.01733
G1 X117.356 Y112.503 E.02765
G1 X116.733 Y111.967 E.02767
;WIDTH:0.447533
G1 X116.148 Y111.39 E.02764
;WIDTH:0.447082
G1 X115.603 Y110.775 E.02762
;WIDTH:0.446409
G1 X115.1 Y110.125 E.02757
;WIDTH:0.445513
G1 X114.642 Y109.443 E.0275
;WIDTH:0.4444
G1 X114.203 Y108.673 E.02959
;WIDTH:0.44326
G1 X113.817 Y107.867 E.02975
;WIDTH:0.442343
G1 X113.491 Y107.034 E.02971
;WIDTH:0.441647
G1 X113.227 Y106.18 E.02964
;WIDTH:0.441169
G1 X113.037 Y105.365 E.02771
;WIDTH:0.447782
G1 X112.943 Y104.85 E.01762
G1 X112.846 Y104.034 E.02766
G1 X112.803 Y103.213 E.02768
;WIDTH:0.447576
G1 X112.816 Y102.392 E.02763
;WIDTH:0.447147
G1 X112.884 Y101.573 E.02762
;WIDTH:0.4465
G1 X113.028 Y100.536 E.03513
M204 S1000
;WIPE_START
G1 F8640
G1 X113.431 Y100.705 E-.1009
G1 X113.376 Y100.975 E-.06362
G1 X113.26 Y101.834 E-.20015
G1 X113.206 Y102.698 E-.19989
G1 X113.208 Y103.215 E-.11938
G1 X113.25 Y104.007 E-.18313
G1 X113.318 Y104.579 E-.13293
;WIPE_END
G1 Z.4 F720
G1 X122.155 Y115.374 F10800
G1 Z.2 F720
G1 E1 F2100
M204 S800
;WIDTH:0.419999
G1 F1200
G1 X127.839 Y115.367 E.17822
G1 X127.618 Y115.693 E.01235
G1 X127.368 Y116.226 E.01846
G1 X127.247 Y116.735 E.0164
G1 X127.192 Y118.206 E.04615
G1 X127.048 Y118.601 E.01318
G1 X126.778 Y118.923 E.01318
G1 X126.414 Y119.133 E.01318
G1 X125.966 Y119.209 E.01425
G1 X124.034 Y119.209 E.06058
G1 X123.586 Y119.133 E.01425
G1 X123.222 Y118.923 E.01318
G1 X122.952 Y118.601 E.01318
G1 X122.813 Y118.224 E.0126
G1 X122.792 Y117.333 E.02794
G1 X122.751 Y116.7 E.01989
G1 X122.632 Y116.226 E.01532
G1 X122.432 Y115.779 E.01535
G1 X122.189 Y115.424 E.01349
M204 S1000
;WIPE_START
G1 F8640
G1 X126.52 Y115.38 E-1
;WIPE_END
G1 Z.4 F720
G1 X128.8 Y114.617 F10800
G1 Z.2 F720
G1 E1 F2100
M204 S800
;WIDTH:0.445574
G1 F1200
G1 X128.8 Y114.161 E.01527
G1 X129.062 Y114.073 E.00925
;WIDTH:0.442247
G1 X129.863 Y113.745 E.02874
;WIDTH:0.441578
G1 X130.638 Y113.359 E.0287
;WIDTH:0.447573
G1 X131.085 Y113.1 E.01738
;WIDTH:0.447766
G1 X131.75 Y112.667 E.02671
G1 X132.385 Y112.192 E.02669
G1 X132.986 Y111.675 E.02669
;WIDTH:0.447532
G1 X133.552 Y111.119 E.02669
;WIDTH:0.44708
G1 X134.079 Y110.527 E.02664
;WIDTH:0.446407
G1 X134.566 Y109.9 E.02664
;WIDTH:0.445512
G1 X135.01 Y109.242 E.02657
;WIDTH:0.444397
G1 X135.437 Y108.498 E.02864
;WIDTH:0.44326
G1 X135.812 Y107.717 E.02884
;WIDTH:0.442343
G1 X136.129 Y106.911 E.02876
;WIDTH:0.441647
G1 X136.386 Y106.084 E.02871
;WIDTH:0.447532
G1 X136.509 Y105.574 E.01765
;WIDTH:0.447781
G1 X136.656 Y104.794 E.02672
G1 X136.75 Y104.007 E.02668
G1 X136.792 Y103.215 E.0267
;WIDTH:0.447575
G1 X136.781 Y102.421 E.02672
;WIDTH:0.447145
G1 X136.715 Y101.625 E.02685
;WIDTH:0.452147
G1 X136.573 Y100.707 E.03161
G1 X136.966 Y100.479 E.01546
G1 X137.028 Y100.92 E.01515
;WIDTH:0.447818
G1 X137.138 Y101.804 E.02999
;WIDTH:0.441578
G1 X137.192 Y102.697 E.02966
;WIDTH:0.441127
G1 X137.184 Y103.534 E.02772
;WIDTH:0.447767
G1 X137.153 Y104.048 E.01733
G1 X137.055 Y104.863 E.02763
G1 X136.902 Y105.671 E.02768
;WIDTH:0.447532
G1 X136.695 Y106.466 E.02764
;WIDTH:0.44708
G1 X136.435 Y107.245 E.0276
;WIDTH:0.446407
G1 X136.124 Y108.006 E.02758
;WIDTH:0.44551
G1 X135.762 Y108.743 E.02749
;WIDTH:0.4444
G1 X135.315 Y109.509 E.02961
;WIDTH:0.44326
G1 X134.809 Y110.246 E.02976
;WIDTH:0.442343
G1 X134.251 Y110.945 E.02971
;WIDTH:0.441647
G1 X133.643 Y111.6 E.02963
;WIDTH:0.441168
G1 X133.032 Y112.173 E.02774
;WIDTH:0.44778
G1 X132.633 Y112.511 E.0176
G1 X131.976 Y113.004 E.02765
G1 X131.286 Y113.451 E.02768
;WIDTH:0.447573
G1 X130.568 Y113.85 E.02764
;WIDTH:0.447147
G1 X129.825 Y114.201 E.02762
;WIDTH:0.446499
G1 X128.855 Y114.595 E.03513
M204 S1000
;WIPE_START
G1 F8640
G1 X128.8 Y114.161 E-.10101
G1 X129.062 Y114.073 E-.06382
G1 X129.863 Y113.745 E-.19986
G1 X130.638 Y113.359 E-.19992
G1 X131.085 Y113.1 E-.11929
G1 X131.75 Y112.667 E-.18323
G1 X132.211 Y112.322 E-.13287
;WIPE_END
G1 Z.4 F720
G1 X112.986 Y99.87 F10800
G1 Z.2 F720
G1 E1 F2100
M204 S800
;TYPE:External perimeter
;WIDTH:0.419999
G1 F1200
G1 X113.389 Y99.121 E.02667
G1 X116.081 Y94.458 E.16882
G1 X116.285 Y94.155 E.01145
;WIDTH:0.419708
G1 X116.482 Y94.141 E.00619
;WIDTH:0.419999
G1 X117.282 Y94.603 E.02897
G1 X117.666 Y94.256 E.01623
G1 X118.194 Y93.845 E.02098
G1 X118.828 Y93.407 E.02416
G1 X119.485 Y93.016 E.02397
G1 X120.166 Y92.669 E.02396
G1 X120.869 Y92.368 E.02398
G1 X121.59 Y92.115 E.02396
G1 X122.093 Y91.963 E.01648
G1 X122.91 Y91.779 E.02626
G1 X123.739 Y91.656 E.02628
G1 X124.574 Y91.594 E.02625
G1 X125.404 Y91.594 E.02602
G1 X126.167 Y91.649 E.02399
G1 X126.924 Y91.755 E.02397
G1 X127.673 Y91.91 E.02398
G1 X128.41 Y92.115 E.02399
G1 X129.131 Y92.368 E.02396
G1 X129.834 Y92.669 E.02398
G1 X130.515 Y93.016 E.02396
G1 X130.965 Y93.27 E.0162
G1 X131.662 Y93.733 E.02624
G1 X132.324 Y94.247 E.02628
G1 X132.718 Y94.603 E.01665
G1 X133.488 Y94.158 E.02788
G1 X133.69 Y94.142 E.00635
;WIDTH:0.411852
G1 X133.772 Y94.212 E.00331
;WIDTH:0.419999
G1 X136.854 Y99.542 E.19305
G1 X137.014 Y99.87 E.01144
;WIDTH:0.415741
G1 X136.943 Y100.035 E.00557
;WIDTH:0.419999
G1 X136.128 Y100.509 E.02956
G1 X136.237 Y101.015 E.01623
G1 X136.329 Y101.678 E.02099
G1 X136.391 Y102.446 E.02416
G1 X136.401 Y103.211 E.02399
G1 X136.361 Y103.974 E.02396
G1 X136.27 Y104.733 E.02397
G1 X136.128 Y105.484 E.02396
G1 X136.009 Y105.996 E.01648
G1 X135.759 Y106.795 E.02625
M73 Q1 S53
G1 X135.451 Y107.575 E.02629
G1 X135.087 Y108.329 E.02625
G1 X134.673 Y109.048 E.02601
G1 X134.244 Y109.681 E.02398
G1 X133.774 Y110.284 E.02397
G1 X133.265 Y110.855 E.02398
G1 X132.719 Y111.39 E.02397
M73 P1 R52
G1 X132.139 Y111.888 E.02397
G1 X131.527 Y112.346 E.02397
G1 X130.886 Y112.763 E.02398
G1 X130.441 Y113.026 E.01621
G1 X129.691 Y113.398 E.02625
G1 X128.915 Y113.714 E.02627
G1 X128.41 Y113.878 E.01665
G1 X128.41 Y114.766 E.02784
G1 X128.324 Y114.949 E.00634
;WIDTH:0.411851
G1 X128.221 Y114.985 E.00335
;WIDTH:0.419999
G1 X122.065 Y114.99 E.19302
G1 X121.701 Y114.965 E.01144
;WIDTH:0.419708
G1 X121.59 Y114.801 E.0062
;WIDTH:0.419999
G1 X121.59 Y113.878 E.02894
G1 X121.098 Y113.719 E.01621
G1 X120.478 Y113.467 E.02098
G1 X119.781 Y113.136 E.02419
G1 X119.114 Y112.763 E.02396
G1 X118.473 Y112.346 E.02398
G1 X117.861 Y111.888 E.02397
G1 X117.281 Y111.39 E.02397
G1 X116.898 Y111.031 E.01646
G1 X116.331 Y110.415 E.02625
G1 X115.81 Y109.759 E.02627
G1 X115.338 Y109.066 E.02629
G1 X114.923 Y108.348 E.026
G1 X114.589 Y107.66 E.02398
G1 X114.302 Y106.951 E.02398
G1 X114.062 Y106.225 E.02397
G1 X113.872 Y105.484 E.02399
G1 X113.73 Y104.733 E.02396
G1 X113.639 Y103.974 E.02397
G1 X113.599 Y103.211 E.02396
G1 X113.594 Y102.694 E.01621
G1 X113.647 Y101.858 E.02626
G1 X113.761 Y101.029 E.02624
G1 X113.872 Y100.509 E.01667
G1 X113.057 Y100.035 E.02956
;WIDTH:0.415742
G1 X113.009 Y99.925 E.00372
